; generated by PrusaSlicer 2.6.1+win64 on 2024-05-05 at 19:52:00 UTC

; 

; external perimeters extrusion width = 0.42mm
; perimeters extrusion width = 0.44mm
; infill extrusion width = 0.44mm
; solid infill extrusion width = 0.44mm
; top infill extrusion width = 0.40mm
; support material extrusion width = 0.36mm
; first layer extrusion width = 0.42mm

M201 X500 Y500 Z100 E5000 ; sets maximum accelerations, mm/sec^2
M203 X500 Y500 Z10 E60 ; sets maximum feedrates, mm / sec
M204 P500 R1000 T500 ; sets acceleration (P, T) and retract acceleration (R), mm/sec^2
M205 X8.00 Y8.00 Z0.40 E5.00 ; sets the jerk limits, mm/sec
M205 S0 T0 ; sets the minimum extruding and travel feed rate, mm/sec
;TYPE:Custom
G90 ; use absolute coordinates
M83 ; extruder relative mode
M104 S150 ; set temporary nozzle temp to prevent oozing during homing and auto bed leveling
M140 S60 ; set final bed temp
M190 S60 ; wait for bed temp to stabilize
G28 ; home all axis
G29 ; auto bed levelling
G1 Z50 F240
G1 X2.0 Y10 F3000
M104 S215 ; set final nozzle temp
M109 S215 ; wait for nozzle temp to stabilize
G1 Z0.28 F240
G92 E0
G1 X2.0 Y140 E10 F1500 ; prime the nozzle
G1 X2.3 Y140 F5000
G92 E0
G1 X2.3 Y10 E10 F1200 ; prime the nozzle
G92 E0
G21 ; set units to millimeters
G90 ; use absolute coordinates
M83 ; use relative distances for extrusion
; Filament gcode
M107
;LAYER_CHANGE
;Z:0.2
;HEIGHT:0.2
;BEFORE_LAYER_CHANGE
G92 E0
;0.2


G1 E-6 F3600
G1 Z.2 F9000
;AFTER_LAYER_CHANGE
;0.2
G1 X145.501 Y131.284
G1 E6 F2400
M204 P500
;TYPE:Skirt/Brim
;WIDTH:0.42
G1 F1200
G1 X147.76 Y130.529 E.07468
G1 X177.76 Y130.529 E.94063
G1 X179.435 Y130.924 E.05396
G1 X180.759 Y132.025 E.05399
G1 X181.514 Y134.283 E.07465
G1 X181.514 Y137.283 E.09406
G1 X181.119 Y138.959 E.05399
G1 X180.644 Y139.686 E.02723
G1 X170.644 Y151.686 E.48977
G1 X169.268 Y152.721 E.05399
G1 X167.76 Y153.037 E.04831
G1 X147.76 Y153.037 E.62709
G1 X146.084 Y152.642 E.05399
G1 X144.761 Y151.541 E.05397
G1 X144.006 Y149.283 E.07465
G1 X144.006 Y134.283 E.47031
G1 X144.4 Y132.607 E.05398
G1 X145.463 Y131.33 E.0521
G1 X145.764 Y131.601 F9000
G1 F1200
G1 X145.867 Y131.486 E.00484
G1 X147.76 Y130.906 E.06208
G1 X177.76 Y130.906 E.94063
G1 X179.343 Y131.3 E.05115
G1 X180.557 Y132.39 E.05116
G1 X181.137 Y134.283 E.06208
G1 X181.137 Y137.283 E.09406
G1 X180.354 Y139.445 E.0721
G1 X170.354 Y151.445 E.48977
G1 X169.038 Y152.409 E.05115
G1 X167.76 Y152.66 E.04084
G1 X147.76 Y152.66 E.62709
G1 X146.177 Y152.266 E.05115
G1 X144.963 Y151.176 E.05116
G1 X144.383 Y149.283 E.06208
G1 X144.383 Y134.283 E.47031
G1 X144.777 Y132.7 E.05115
G1 X145.724 Y131.645 E.04445
; printing object Pièce1.stl id:0 copy 0
G1 E-4.2 F3600
;WIPE_START
G1 F7200
G1 X145.867 Y131.486 E-.10158
G1 X147.76 Y130.906 E-.94043
G1 X149.356 Y130.906 E-.75799
;WIPE_END
G1 X160.487 Y135.869 F9000
G1 E6 F2400
;TYPE:Support material
G1 F1200
G1 X161.199 Y135.939 E.02243
G1 X161.887 Y136.247 E.02363
G1 X162.885 Y136.929 E.0379
G1 X165.764 Y140.082 E.13387
G1 X164.564 Y140.676 E.04198
G1 X164.67 Y141.809 E.03568
G1 X164.566 Y142.91 E.03467
G1 X164.381 Y143.548 E.02083
G1 X165.228 Y144.36 E.03679
G1 X162.826 Y146.73 E.1058
G1 X161.89 Y147.371 E.03557
G1 X161.374 Y147.597 E.01766
G1 X160.852 Y147.673 E.01654
G1 X160.062 Y147.7 E.02478
G1 X159.536 Y147.659 E.01654
G1 X159.016 Y147.571 E.01654
G1 X158.506 Y147.437 E.01653
G1 X157.768 Y147.153 E.02479
G1 X157.3 Y146.91 E.01653
G1 X156.855 Y146.626 E.01655
G1 X156.438 Y146.304 E.01652
G1 X155.94 Y145.828 E.0216
G1 X155.533 Y145.347 E.01976
G1 X155.236 Y144.914 E.01646
G1 X154.976 Y144.453 E.01659
G1 X154.759 Y143.972 E.01655
G1 X154.586 Y143.474 E.01653
G1 X154.458 Y142.962 E.01655
G1 X154.362 Y142.28 E.02159
G1 X154.341 Y141.651 E.01973
G1 X154.376 Y141.125 E.01653
G1 X154.458 Y140.604 E.01654
G1 X154.636 Y139.938 E.02161
G1 X154.862 Y139.351 E.01972
G1 X155.1 Y138.88 E.01655
G1 X155.379 Y138.433 E.01652
G1 X155.697 Y138.011 E.01657
G1 X156.24 Y137.437 E.02477
G1 X156.643 Y137.096 E.01655
G1 X157.3 Y136.656 E.02479
G1 X157.768 Y136.413 E.01653
G1 X158.256 Y136.212 E.01655
G1 X158.759 Y136.056 E.01651
G1 X159.275 Y135.945 E.01655
G1 X159.799 Y135.881 E.01655
G1 X160.43 Y135.867 E.01979
G1 X164.855 Y140.343 F9000
G1 F1200
G1 X164.855 Y139.59 E.02361
G1 X164.436 Y139.131 E.01949
G1 X164.436 Y140.55 E.04449
G1 X164.436 Y144.903 F9000
G1 F1200
G1 X164.436 Y143.835 E.03349
G1 X164.017 Y145.316 F9000
G1 F1200
G1 X164.017 Y138.672 E.20832
G1 X163.598 Y138.213 E.01949
G1 X163.598 Y145.491 E.2282
G1 X163.179 Y145.905 E.01847
G1 X163.179 Y137.754 E.25557
G1 X162.76 Y137.295 E.01949
G1 X162.76 Y146.319 E.28294
G1 X162.61 Y146.467 E.00661
G1 X162.341 Y146.651 E.01022
G1 X162.341 Y136.968 E.3036
G1 X161.922 Y136.681 E.01592
G1 X161.922 Y146.937 E.32157
G1 X161.723 Y147.073 E.00756
G1 X161.503 Y147.172 E.00756
G1 X161.503 Y136.447 E.33627
G1 X161.084 Y136.264 E.01434
G1 X161.084 Y147.302 E.34609
G1 X160.665 Y147.347 E.01321
G1 X160.665 Y136.218 E.34894
G1 X160.246 Y136.204 E.01314
G1 X160.246 Y147.362 E.34985
G1 X159.827 Y147.347 E.01315
G1 X159.827 Y136.219 E.34891
G1 X159.408 Y136.269 E.01323
G1 X159.408 Y147.297 E.34578
G1 X158.989 Y147.215 E.01339
G1 X158.989 Y136.35 E.34066
G1 X158.57 Y136.465 E.01362
G1 X158.57 Y147.101 E.33348
G1 X158.151 Y146.949 E.01398
G1 X158.151 Y136.616 E.32398
G1 X157.732 Y136.809 E.01446
G1 X157.732 Y146.757 E.31191
G1 X157.313 Y146.521 E.01508
G1 X157.313 Y137.045 E.29711
G1 X156.894 Y137.333 E.01594
G1 X156.894 Y146.233 E.27905
G1 X156.475 Y145.884 E.0171
G1 X156.475 Y137.682 E.25717
G1 X156.056 Y138.115 E.01889
G1 X156.056 Y145.451 E.23002
G1 X155.637 Y144.908 E.0215
G1 X155.637 Y138.658 E.19596
G1 X155.396 Y139.047 E.01435
G1 X155.218 Y139.393 E.0122
G1 X155.218 Y144.172 E.14984
G1 X154.988 Y143.613 E.01895
G1 X154.799 Y142.93 E.02222
G1 X154.799 Y139.985 E.09234
G1 E-4.2 F3600
;WIPE_START
G1 F7200
G1 X154.799 Y142.93 E-1.39887
G1 X154.988 Y143.613 E-.33662
G1 X155.04 Y143.739 E-.06451
;WIPE_END
G1 X166.731 Y137.01 F9000
G1 E6 F2400
;TYPE:Perimeter
;WIDTH:0.419999
G1 F1200
G1 X166.696 Y137.161 E.00486
G1 X166.696 Y138.059 E.02816
G1 X166.22 Y137.326 E.0274
G1 X165.864 Y136.881 E.01787
G1 X165.406 Y136.402 E.02078
G1 X164.906 Y135.965 E.02082
G1 X164.44 Y135.621 E.01816
G1 X163.986 Y135.347 E.01663
G1 X176.696 Y135.347 E.39851
G1 X176.696 Y136.219 E.02734
G1 X167.638 Y136.219 E.28401
G1 X167.475 Y136.233 E.00513
G1 X167.19 Y136.332 E.00946
G1 X166.879 Y136.603 E.01293
G1 X166.794 Y136.742 E.00511
G1 X166.745 Y136.951 E.00673
G1 X167.09 Y137.086 F9000
G1 F1200
G1 X167.073 Y137.161 E.00241
G1 X167.072 Y139.891 E.0856
G1 X166.87 Y139.281 E.02015
G1 X166.478 Y138.422 E.02961
G1 X165.925 Y137.56 E.03211
G1 X165.59 Y137.14 E.01684
G1 X165.156 Y136.684 E.01974
G1 X164.682 Y136.269 E.01975
G1 X164.169 Y135.894 E.01992
G1 X163.517 Y135.512 E.02369
G1 X162.777 Y135.178 E.02546
G1 X162.18 Y134.975 E.01977
G1 X177.073 Y134.97 E.46696
G1 X177.073 Y136.596 E.05098
G1 X167.638 Y136.596 E.29583
G1 X167.369 Y136.664 E.0087
G1 X167.132 Y136.91 E.01071
G1 X167.104 Y137.027 E.00377
G1 E-4.2 F3600
;WIPE_START
G1 F7200
G1 X167.073 Y137.161 E-.06533
G1 X167.072 Y139.891 E-1.29675
G1 X166.87 Y139.281 E-.30522
G1 X166.754 Y139.027 E-.1327
;WIPE_END
G1 X166.696 Y145.525 F9000
G1 E6 F2400
G1 F1200
G1 X166.696 Y148.219 E.08447
G1 X163.995 Y148.219 E.08469
G1 X164.44 Y147.944 E.0164
G1 X164.971 Y147.548 E.02077
G1 X165.509 Y147.06 E.02277
G1 X165.919 Y146.621 E.01883
G1 X166.327 Y146.098 E.0208
G1 X166.663 Y145.575 E.01949
G1 X167.07 Y143.688 F9000
G1 F1200
G1 X167.073 Y148.596 E.15389
G1 X162.18 Y148.591 E.15342
G1 X163.115 Y148.249 E.03122
G1 X163.679 Y147.97 E.01973
G1 X164.216 Y147.641 E.01975
G1 X164.722 Y147.265 E.01977
G1 X165.235 Y146.801 E.02169
G1 X165.623 Y146.387 E.01779
G1 X166.012 Y145.892 E.01974
G1 X166.36 Y145.353 E.02012
G1 X166.782 Y144.508 E.02961
G1 X167.05 Y143.744 E.02539
G1 E-4.2 F3600
;WIPE_START
G1 F7200
G1 X167.068 Y147.533 E-1.8
;WIPE_END
G1 X156.527 Y148.219 F9000
G1 E6 F2400
G1 F1200
G1 X148.824 Y148.219 E.24152
G1 X148.824 Y135.347 E.40359
G1 X156.527 Y135.347 E.24152
G1 X156.218 Y135.53 E.01126
G1 X155.662 Y135.928 E.02144
G1 X154.936 Y136.578 E.03055
G1 X154.482 Y137.089 E.02143
G1 X153.919 Y137.881 E.03047
G1 X153.596 Y138.462 E.02084
G1 X153.327 Y139.069 E.02082
G1 X153.113 Y139.697 E.0208
G1 X152.952 Y140.362 E.02145
G1 X152.828 Y141.328 E.03054
G1 X152.817 Y141.991 E.02079
G1 X152.865 Y142.652 E.02078
G1 X152.972 Y143.307 E.02081
G1 X153.144 Y143.969 E.02145
G1 X153.489 Y144.88 E.03054
G1 X153.797 Y145.479 E.02112
G1 X154.229 Y146.147 E.02494
G1 X154.766 Y146.808 E.0267
G1 X155.235 Y147.277 E.0208
G1 X155.744 Y147.703 E.02081
G1 X156.477 Y148.186 E.02752
G1 X158.387 Y148.596 F9000
G1 F1200
G1 X148.447 Y148.596 E.31166
G1 X148.447 Y134.97 E.42723
G1 X158.396 Y134.97 E.31194
G1 X158.141 Y135.039 E.00828
G1 X157.55 Y135.254 E.01972
G1 X156.979 Y135.522 E.01978
G1 X156.435 Y135.839 E.01974
G1 X155.912 Y136.21 E.02011
G1 X155.216 Y136.83 E.02923
G1 X154.788 Y137.309 E.02014
G1 X154.247 Y138.066 E.02917
G1 X153.939 Y138.617 E.01979
G1 X153.683 Y139.192 E.01973
G1 X153.478 Y139.788 E.01976
G1 X153.326 Y140.412 E.02014
G1 X153.205 Y141.336 E.02922
G1 X153.193 Y141.966 E.01976
G1 X153.238 Y142.594 E.01974
G1 X153.338 Y143.216 E.01975
G1 X153.497 Y143.838 E.02013
G1 X153.825 Y144.71 E.02921
G1 X154.115 Y145.276 E.01994
G1 X154.524 Y145.911 E.02368
G1 X155.034 Y146.543 E.02546
G1 X155.479 Y146.989 E.01975
G1 X155.961 Y147.394 E.01974
G1 X156.477 Y147.755 E.01975
G1 X157.03 Y148.07 E.01995
G1 X157.719 Y148.377 E.02365
G1 X158.33 Y148.577 E.02016
G1 X159.148 Y148.436 F9000
;TYPE:External perimeter
;WIDTH:0.527499
G1 F1200
G1 X158.956 Y148.377 E.00809
;WIDTH:0.491666
G1 X158.764 Y148.318 E.00749
;WIDTH:0.455833
G1 X158.572 Y148.259 E.0069
;WIDTH:0.419999
G1 X157.837 Y148.019 E.02424
G1 X157.185 Y147.727 E.0224
G1 X156.666 Y147.428 E.01878
G1 X156.178 Y147.086 E.01868
G1 X155.722 Y146.701 E.01871
G1 X155.302 Y146.278 E.01869
G1 X154.818 Y145.675 E.02424
G1 X154.433 Y145.073 E.02241
G1 X154.162 Y144.54 E.01875
G1 X153.85 Y143.706 E.02792
G1 X153.704 Y143.124 E.01881
G1 X153.61 Y142.535 E.0187
G1 X153.57 Y141.94 E.0187
G1 X153.582 Y141.344 E.01869
G1 X153.7 Y140.462 E.0279
G1 X153.844 Y139.88 E.0188
G1 X154.039 Y139.316 E.01871
G1 X154.283 Y138.772 E.01869
G1 X154.576 Y138.251 E.01874
G1 X155.094 Y137.529 E.02786
G1 X155.496 Y137.083 E.01883
G1 X156.162 Y136.493 E.0279
G1 X156.651 Y136.147 E.01878
G1 X157.168 Y135.848 E.01873
G1 X157.708 Y135.596 E.01868
G1 X158.269 Y135.394 E.0187
;WIDTH:0.46072
G1 X158.456 Y135.324 E.00694
;WIDTH:0.501441
G1 X158.643 Y135.253 E.00763
;WIDTH:0.542162
G1 X158.83 Y135.183 E.00829
G1 X159.426 Y135.099 E.02499
;WIDTH:0.507993
G1 X160.203 Y135.062 E.03008
;WIDTH:0.496929
G1 X160.921 Y135.085 E.02712
;WIDTH:0.541132
G1 X161.52 Y135.149 E.02496
G1 X161.711 Y135.215 E.00837
;WIDTH:0.500755
G1 X161.901 Y135.281 E.00766
;WIDTH:0.460377
G1 X162.091 Y135.347 E.00698
;WIDTH:0.419999
G1 X162.657 Y135.535 E.0187
G1 X163.361 Y135.855 E.02425
G1 X163.977 Y136.218 E.02242
G1 X164.459 Y136.572 E.01875
G1 X164.906 Y136.967 E.0187
G1 X165.316 Y137.399 E.01867
G1 X165.629 Y137.794 E.0158
G1 X166.158 Y138.622 E.03081
G1 X166.526 Y139.436 E.02801
G1 X166.712 Y140.007 E.01883
;WIDTH:0.453837
G1 X166.772 Y140.197 E.00681
;WIDTH:0.487675
G1 X166.833 Y140.387 E.00738
;WIDTH:0.521513
G1 X166.894 Y140.577 E.00794
G1 X166.962 Y141.174 E.02391
;WIDTH:0.495307
G1 X166.982 Y141.773 E.02254
;WIDTH:0.493513
G1 X166.963 Y142.372 E.02245
;WIDTH:0.534096
G1 X166.904 Y142.969 E.0245
G1 X166.841 Y143.16 E.00821
;WIDTH:0.496064
G1 X166.779 Y143.351 E.00757
;WIDTH:0.458032
G1 X166.716 Y143.543 E.00697
;WIDTH:0.419999
G1 X166.425 Y144.384 E.0279
G1 X166.024 Y145.183 E.02803
G1 X165.696 Y145.685 E.0188
G1 X165.327 Y146.154 E.01871
G1 X164.962 Y146.541 E.01668
G1 X164.472 Y146.983 E.02069
G1 X163.992 Y147.337 E.0187
G1 X163.483 Y147.647 E.01869
G1 X162.948 Y147.911 E.01871
G1 X162.111 Y148.213 E.0279
;WIDTH:0.457667
G1 X161.921 Y148.278 E.00693
;WIDTH:0.495334
G1 X161.731 Y148.344 E.00757
;WIDTH:0.533001
G1 X161.541 Y148.409 E.00818
G1 X160.944 Y148.48 E.0245
;WIDTH:0.499101
G1 X160.344 Y148.505 E.02278
;WIDTH:0.490391
G1 X159.746 Y148.49 E.02226
;WIDTH:0.527499
G1 X159.208 Y148.442 E.02176
G1 E-4.2 F3600
;WIPE_START
G1 F7200
G1 X158.956 Y148.377 E-.12362
G1 X158.764 Y148.318 E-.09541
G1 X158.572 Y148.259 E-.09541
G1 X157.837 Y148.019 E-.36727
G1 X157.185 Y147.727 E-.33934
G1 X156.666 Y147.428 E-.28451
G1 X156.178 Y147.086 E-.28306
G1 X155.838 Y146.799 E-.21138
;WIPE_END
G1 X167.45 Y137.161 F9000
G1 E6 F2400
;WIDTH:0.419999
G1 F1200
G1 X167.45 Y139.941 E.08716
;WIDTH:0.458032
G1 X167.431 Y140.149 E.00721
;WIDTH:0.496064
G1 X167.412 Y140.357 E.00787
;WIDTH:0.534096
G1 X167.393 Y140.564 E.00849
G1 X167.413 Y141.184 E.02533
;WIDTH:0.493512
G1 X167.419 Y141.802 E.02316
;WIDTH:0.495308
G1 X167.412 Y142.422 E.02332
;WIDTH:0.528558
G1 X167.395 Y143.045 E.02517
G1 X167.414 Y143.239 E.00787
;WIDTH:0.492372
G1 X167.432 Y143.432 E.00724
;WIDTH:0.456186
G1 X167.45 Y143.625 E.00666
;WIDTH:0.419999
G1 X167.45 Y148.973 E.16768
G1 X162.18 Y148.973 E.16524
;WIDTH:0.460377
G1 X161.972 Y148.953 E.00725
;WIDTH:0.500755
G1 X161.764 Y148.933 E.00795
;WIDTH:0.541133
G1 X161.556 Y148.912 E.00866
G1 X160.936 Y148.934 E.0257
;WIDTH:0.497065
G1 X160.318 Y148.943 E.02334
;WIDTH:0.49195
G1 X159.698 Y148.937 E.02315
;WIDTH:0.531129
G1 X159.075 Y148.917 E.0253
G1 X158.882 Y148.936 E.00787
;WIDTH:0.494086
G1 X158.689 Y148.954 E.00727
;WIDTH:0.457043
G1 X158.496 Y148.973 E.00668
;WIDTH:0.419999
G1 X148.07 Y148.973 E.3269
G1 X148.07 Y134.593 E.45087
G1 X158.183 Y134.593 E.31709
;WIDTH:0.465511
G1 X158.391 Y134.616 E.00735
;WIDTH:0.511023
G1 X158.6 Y134.638 E.00818
;WIDTH:0.556535
G1 X158.808 Y134.661 E.00894
G1 X159.122 Y134.648 E.01342
;WIDTH:0.530871
G1 X159.436 Y134.636 E.01275
;WIDTH:0.505206
G1 X160.236 Y134.624 E.03075
;WIDTH:0.499092
G1 X160.976 Y134.632 E.02807
;WIDTH:0.527572
G1 X161.601 Y134.647 E.02519
G1 X161.794 Y134.629 E.00781
;WIDTH:0.491715
G1 X161.987 Y134.611 E.00723
;WIDTH:0.455857
G1 X162.18 Y134.593 E.00666
;WIDTH:0.419999
G1 X177.45 Y134.593 E.47878
G1 X177.45 Y135.783 E.03731
G1 X177.45 Y136.973 E.03731
G1 X167.638 Y136.973 E.30765
G1 X167.486 Y137.05 E.00534
G1 X167.468 Y137.104 E.00178
G1 X167.063 Y137.265 F9000
G1 E-4.2 F3600
;WIPE_START
G1 F7200
G1 X167.45 Y139.941 E-1.3476
G1 X167.431 Y140.149 E-.09921
G1 X167.412 Y140.357 E-.09921
G1 X167.393 Y140.564 E-.09874
G1 X167.404 Y140.891 E-.15524
;WIPE_END
G1 X175.783 Y135.468 F9000
G1 E6 F2400
;TYPE:Solid infill
;WIDTH:0.434135
G1 F1200
G1 X176.243 Y135.928 E.02116
G1 X175.69 Y135.928 E.01799
G1 X175.399 Y135.637 E.01339
G1 X174.846 Y135.637 E.01799
G1 X175.137 Y135.928 E.01339
G1 X174.584 Y135.928 E.01799
G1 X174.293 Y135.637 E.01339
G1 X173.739 Y135.637 E.01802
G1 X174.03 Y135.928 E.01339
G1 X173.477 Y135.928 E.01799
G1 X173.186 Y135.637 E.01339
G1 X172.633 Y135.637 E.01799
G1 X172.924 Y135.928 E.01339
G1 X172.371 Y135.928 E.01799
G1 X172.08 Y135.637 E.01339
G1 X171.526 Y135.637 E.01802
G1 X171.817 Y135.928 E.01339
G1 X171.264 Y135.928 E.01799
G1 X170.973 Y135.637 E.01339
G1 X170.42 Y135.637 E.01799
G1 X170.711 Y135.928 E.01339
G1 X170.158 Y135.928 E.01799
G1 X169.866 Y135.637 E.01341
G1 X169.313 Y135.637 E.01799
G1 X169.604 Y135.928 E.01339
G1 X169.051 Y135.928 E.01799
G1 X168.76 Y135.637 E.01339
G1 X168.207 Y135.637 E.01799
G1 X168.498 Y135.928 E.01339
G1 X167.944 Y135.928 E.01802
G1 X167.653 Y135.637 E.01339
G1 X167.1 Y135.637 E.01799
G1 X167.413 Y135.95 E.0144
G1 X167.049 Y136.077 E.01254
G1 X167.015 Y136.106 E.00145
G1 X166.547 Y135.637 E.02155
G1 X165.994 Y135.637 E.01799
G1 X166.719 Y136.363 E.03338
G1 X166.647 Y136.426 E.00311
G1 X166.498 Y136.695 E.01
G1 X165.271 Y135.468 E.05645
G1 E-4.2 F3600
;WIPE_START
G1 F7200
G1 X166.498 Y136.695 E-.82424
G1 X166.647 Y136.426 E-.14607
G1 X166.719 Y136.363 E-.04544
G1 X165.994 Y135.637 E-.48736
G1 X166.547 Y135.637 E-.26267
G1 X166.598 Y135.688 E-.03422
;WIPE_END
G1 X154.889 Y135.468 F9000
