; generated by PrusaSlicer 2.6.1+win64 on 2024-04-13 at 16:14:21 UTC

; 

; external perimeters extrusion width = 0.42mm
; perimeters extrusion width = 0.44mm
; infill extrusion width = 0.44mm
; solid infill extrusion width = 0.44mm
; top infill extrusion width = 0.40mm
; first layer extrusion width = 0.42mm

M201 X500 Y500 Z100 E5000 ; sets maximum accelerations, mm/sec^2
M203 X500 Y500 Z10 E60 ; sets maximum feedrates, mm / sec
M204 S500 T1000 ; sets acceleration (S) and retract acceleration (R), mm/sec^2
M205 X8.00 Y8.00 Z0.40 E5.00 ; sets the jerk limits, mm/sec
M205 S0 T0 ; sets the minimum extruding and travel feed rate, mm/sec
;TYPE:Custom
G90 ; use absolute coordinates
M83 ; extruder relative mode
M104 S150 ; set temporary nozzle temp to prevent oozing during homing
M140 S60 ; set final bed temp
G4 S30 ; allow partial nozzle warmup
G28 ; home all axis
G1 Z50 F240
G1 X2.0 Y10 F3000
M104 S215 ; set final nozzle temp
M190 S60 ; wait for bed temp to stabilize
M109 S215 ; wait for nozzle temp to stabilize
G1 Z0.28 F240
G92 E0
G1 X2.0 Y140 E10 F1500 ; prime the nozzle
G1 X2.3 Y140 F5000
G92 E0
G1 X2.3 Y10 E10 F1200 ; prime the nozzle
G92 E0
G21 ; set units to millimeters
G90 ; use absolute coordinates
M83 ; use relative distances for extrusion
; Filament gcode
M107
;LAYER_CHANGE
;Z:0.2
;HEIGHT:0.2
;BEFORE_LAYER_CHANGE
G92 E0
;0.2


G1 E-5 F3600
G1 Z.2 F9000
;AFTER_LAYER_CHANGE
;0.2
G1 X104.742 Y97.501
G1 E5 F2400
M204 S500
;TYPE:Skirt/Brim
;WIDTH:0.42
G1 F1200
G1 X107 Y96.746 E.07465
G1 X124 Y96.746 E.53302
G1 X125.676 Y97.141 E.05399
G1 X126.999 Y98.242 E.05397
G1 X127.754 Y100.5 E.07465
G1 X127.754 Y130.5 E.94063
G1 X127.359 Y132.176 E.05399
G1 X126.258 Y133.499 E.05397
G1 X124 Y134.254 E.07465
G1 X107 Y134.254 E.53302
G1 X105.324 Y133.859 E.05399
G1 X104.001 Y132.758 E.05397
G1 X103.246 Y130.5 E.07465
G1 X103.246 Y100.5 E.94063
G1 X103.641 Y98.824 E.05399
G1 X104.703 Y97.547 E.05208
G1 X105.004 Y97.818 F9000
G1 F1200
G1 X105.107 Y97.703 E.00484
G1 X107 Y97.123 E.06208
G1 X124 Y97.123 E.53302
G1 X125.583 Y97.517 E.05115
G1 X126.797 Y98.607 E.05116
G1 X127.377 Y100.5 E.06208
G1 X127.377 Y130.5 E.94063
G1 X126.983 Y132.083 E.05115
G1 X125.893 Y133.297 E.05116
G1 X124 Y133.877 E.06208
G1 X107 Y133.877 E.53302
G1 X105.417 Y133.483 E.05115
G1 X104.203 Y132.393 E.05116
G1 X103.623 Y130.5 E.06208
G1 X103.623 Y100.5 E.94063
G1 X104.017 Y98.917 E.05115
G1 X104.964 Y97.862 E.04445
; printing object support_tof_actionneur_panneaux_solaires.stl id:0 copy 0
G1 E-3.5 F3600
;WIPE_START
G1 F7200
G1 X105.107 Y97.703 E-.10158
G1 X107 Y97.123 E-.94043
G1 X107.964 Y97.123 E-.45799
;WIPE_END
G1 X108.064 Y109.064 F9000
G1 E5 F2400
;TYPE:Perimeter
;WIDTH:0.419999
G1 F1200
G1 X122.936 Y109.064 E.4663
G1 X122.936 Y129.436 E.63875
G1 X108.064 Y129.436 E.4663
G1 X108.064 Y109.124 E.63687
G1 X107.687 Y108.526 F9000
G1 F1200
G1 X107.879 Y108.687 E.00786
G1 X123.121 Y108.687 E.4779
G1 X123.313 Y108.526 E.00786
G1 X123.313 Y129.813 E.66744
G1 X107.687 Y129.813 E.48994
G1 X107.687 Y108.586 E.66556
G1 X107.689 Y108.121 F9000
;TYPE:External perimeter
;WIDTH:0.42146
G1 F1200
G1 X107.689 Y101.879 E.19647
G1 X107.879 Y101.69 E.00844
;WIDTH:0.419999
G1 X123.121 Y101.69 E.4779
;WIDTH:0.42146
G1 X123.311 Y101.879 E.00844
G1 X123.311 Y108.121 E.19647
G1 X123.121 Y108.31 E.00844
;WIDTH:0.419999
G1 X107.879 Y108.31 E.4779
;WIDTH:0.42146
G1 X107.732 Y108.164 E.00652
G1 E-3.5 F3600
;WIPE_START
G1 F7200
G1 X107.71 Y105.006 E-1.5
;WIPE_END
G1 X107.31 Y100.81 F9000
G1 E5 F2400
;WIDTH:0.419999
G1 F1200
G1 X123.69 Y100.81 E.51358
G1 X123.69 Y101.256 E.01398
;WIDTH:0.42146
G1 X123.689 Y108.121 E.21608
;WIDTH:0.424328
G1 X123.69 Y108.879 E.02404
;WIDTH:0.419999
G1 X123.69 Y130.19 E.66819
G1 X107.31 Y130.19 E.51358
G1 X107.31 Y108.879 E.66819
;WIDTH:0.42146
G1 X107.31 Y100.87 E.25209
G1 X107.756 Y101.256 F9000
;TYPE:Perimeter
;WIDTH:0.557792
G1 F1200
G1 X107.879 Y101.25 E.00527
;WIDTH:0.545842
G1 X123.121 Y101.25 E.63739
;WIDTH:0.557792
G1 X123.244 Y101.256 E.00527
G1 E-3.5 F3600
;WIPE_START
G1 F7200
G1 X123.121 Y101.25 E-.05849
G1 X120.086 Y101.25 E-1.44151
;WIPE_END
G1 X122.049 Y109.185 F9000
G1 E5 F2400
;TYPE:Solid infill
;WIDTH:0.421887
G1 F1200
G1 X122.645 Y109.781 E.02656
G1 X122.645 Y110.317 E.01689
G1 X121.683 Y109.355 E.04287
G1 X121.147 Y109.355 E.01689
G1 X122.645 Y110.853 E.06676
G1 X122.645 Y111.389 E.01689
G1 X120.611 Y109.355 E.09064
G1 X120.075 Y109.355 E.01689
G1 X122.645 Y111.925 E.11453
G1 X122.645 Y112.461 E.01689
G1 X119.539 Y109.355 E.13841
G1 X119.003 Y109.355 E.01689
G1 X122.645 Y112.997 E.1623
G1 X122.645 Y113.533 E.01689
G1 X118.467 Y109.355 E.18619
G1 X117.931 Y109.355 E.01689
G1 X122.645 Y114.069 E.21007
G1 X122.645 Y114.605 E.01689
G1 X117.395 Y109.355 E.23396
G1 X116.859 Y109.355 E.01689
G1 X122.645 Y115.141 E.25785
G1 X122.645 Y115.677 E.01689
G1 X116.323 Y109.355 E.28173
G1 X115.787 Y109.355 E.01689
G1 X122.645 Y116.213 E.30562
G1 X122.645 Y116.749 E.01689
G1 X115.251 Y109.355 E.3295
G1 X114.715 Y109.355 E.01689
G1 X122.645 Y117.285 E.35339
G1 X122.645 Y117.821 E.01689
G1 X114.179 Y109.355 E.37728
G1 X113.644 Y109.355 E.01686
G1 X122.645 Y118.356 E.40112
G1 X122.645 Y118.892 E.01689
G1 X113.108 Y109.355 E.425
G1 X112.572 Y109.355 E.01689
G1 X122.645 Y119.428 E.44889
G1 X122.645 Y119.964 E.01689
G1 X112.036 Y109.355 E.47278
G1 X111.5 Y109.355 E.01689
G1 X122.645 Y120.5 E.49666
G1 X122.645 Y121.036 E.01689
G1 X110.964 Y109.355 E.52055
G1 X110.428 Y109.355 E.01689
G1 X122.645 Y121.572 E.54443
G1 X122.645 Y122.108 E.01689
G1 X109.892 Y109.355 E.56832
G1 X109.356 Y109.355 E.01689
G1 X122.645 Y122.644 E.59221
G1 X122.645 Y123.18 E.01689
G1 X108.82 Y109.355 E.61609
G1 X108.355 Y109.355 E.01465
G1 X108.355 Y109.425 E.00221
G1 X122.645 Y123.716 E.63684
G1 X122.645 Y124.252 E.01689
G1 X108.355 Y109.961 E.63684
G1 X108.355 Y110.497 E.01689
G1 X122.645 Y124.788 E.63684
G1 X122.645 Y125.324 E.01689
G1 X108.355 Y111.033 E.63684
G1 X108.355 Y111.569 E.01689
G1 X122.645 Y125.86 E.63684
G1 X122.645 Y126.396 E.01689
G1 X108.355 Y112.105 E.63684
G1 X108.355 Y112.641 E.01689
G1 X122.645 Y126.931 E.63681
G1 X122.645 Y127.467 E.01689
G1 X108.355 Y113.176 E.63684
G1 X108.355 Y113.712 E.01689
G1 X122.645 Y128.003 E.63684
G1 X122.645 Y128.539 E.01689
G1 X108.355 Y114.248 E.63684
G1 X108.355 Y114.784 E.01689
G1 X122.645 Y129.075 E.63684
G1 X122.645 Y129.145 E.00221
G1 X122.18 Y129.145 E.01465
G1 X108.355 Y115.32 E.61609
G1 X108.355 Y115.856 E.01689
G1 X121.644 Y129.145 E.59221
G1 X121.108 Y129.145 E.01689
G1 X108.355 Y116.392 E.56832
G1 X108.355 Y116.928 E.01689
G1 X120.572 Y129.145 E.54443
G1 X120.036 Y129.145 E.01689
G1 X108.355 Y117.464 E.52055
G1 X108.355 Y118 E.01689
G1 X119.5 Y129.145 E.49666
G1 X118.964 Y129.145 E.01689
G1 X108.355 Y118.536 E.47278
G1 X108.355 Y119.072 E.01689
G1 X118.428 Y129.145 E.44889
G1 X117.892 Y129.145 E.01689
G1 X108.355 Y119.608 E.425
G1 X108.355 Y120.144 E.01689
G1 X117.356 Y129.145 E.40112
G1 X116.82 Y129.145 E.01689
G1 X108.355 Y120.68 E.37723
G1 X108.355 Y121.216 E.01689
G1 X116.284 Y129.145 E.35334
G1 X115.749 Y129.145 E.01686
G1 X108.355 Y121.751 E.3295
G1 X108.355 Y122.287 E.01689
G1 X115.213 Y129.145 E.30562
G1 X114.677 Y129.145 E.01689
G1 X108.355 Y122.823 E.28173
G1 X108.355 Y123.359 E.01689
G1 X114.141 Y129.145 E.25785
G1 X113.605 Y129.145 E.01689
G1 X108.355 Y123.895 E.23396
G1 X108.355 Y124.431 E.01689
G1 X113.069 Y129.145 E.21007
G1 X112.533 Y129.145 E.01689
G1 X108.355 Y124.967 E.18619
G1 X108.355 Y125.503 E.01689
G1 X111.997 Y129.145 E.1623
G1 X111.461 Y129.145 E.01689
G1 X108.355 Y126.039 E.13841
G1 X108.355 Y126.575 E.01689
G1 X110.925 Y129.145 E.11453
G1 X110.389 Y129.145 E.01689
G1 X108.355 Y127.111 E.09064
G1 X108.355 Y127.647 E.01689
G1 X109.853 Y129.145 E.06676
G1 X109.317 Y129.145 E.01689
G1 X108.355 Y128.183 E.04287
G1 X108.355 Y128.719 E.01689
G1 X108.951 Y129.315 E.02656
; stop printing object support_tof_actionneur_panneaux_solaires.stl id:0 copy 0
M106 S255
;LAYER_CHANGE
;Z:0.4
;HEIGHT:0.2
;BEFORE_LAYER_CHANGE
G92 E0
;0.4


G1 E-3.5 F3600
;WIPE_START
G1 F7200
G1 X108.355 Y128.719 E-.40036
G1 X108.355 Y128.183 E-.2546
G1 X109.317 Y129.145 E-.64622
G1 X109.736 Y129.145 E-.19882
;WIPE_END
G1 Z.4 F9000
;AFTER_LAYER_CHANGE
;0.4
M104 S210 ; set temperature
G1 X109.736 Y134.254
G1 E5 F2400
;TYPE:Skirt/Brim
;WIDTH:0.42
G1 X107 Y134.254 E.08579
G1 X105.324 Y133.859 E.05399
G1 X104.001 Y132.758 E.05397
G1 X103.246 Y130.5 E.07465
G1 X103.246 Y100.5 E.94063
G1 X103.641 Y98.824 E.05399
G1 X104.742 Y97.501 E.05397
G1 X107 Y96.746 E.07465
G1 X124 Y96.746 E.53302
G1 X125.676 Y97.141 E.05399
G1 X126.999 Y98.242 E.05397
G1 X127.754 Y100.5 E.07465
G1 X127.754 Y130.5 E.94063
G1 X127.359 Y132.176 E.05399
G1 X126.258 Y133.499 E.05397
G1 X124 Y134.254 E.07465
G1 X109.796 Y134.254 E.44536
G1 X109.796 Y133.877 F9000
G1 F2400
G1 X107 Y133.877 E.08767
G1 X105.417 Y133.483 E.05115
G1 X104.203 Y132.393 E.05116
G1 X103.623 Y130.5 E.06208
G1 X103.623 Y100.5 E.94063
G1 X104.017 Y98.917 E.05115
G1 X105.107 Y97.703 E.05116
G1 X107 Y97.123 E.06208
G1 X124 Y97.123 E.53302
G1 X125.583 Y97.517 E.05115
G1 X126.797 Y98.607 E.05116
G1 X127.377 Y100.5 E.06208
G1 X127.377 Y130.5 E.94063
G1 X126.983 Y132.083 E.05115
G1 X125.893 Y133.297 E.05116
G1 X124 Y133.877 E.06208
G1 X109.856 Y133.877 E.44348
; printing object support_tof_actionneur_panneaux_solaires.stl id:0 copy 0
G1 E-3.5 F3600
;WIPE_START
G1 F7200
G1 X107 Y133.877 E-1.3566
G1 X106.707 Y133.804 E-.1434
;WIPE_END
G1 X107.994 Y108.994 F9000
G1 E5 F2400
;TYPE:Perimeter
;WIDTH:0.439999
G1 X123.006 Y108.994 E.49565
G1 X123.006 Y129.506 E.67725
G1 X107.994 Y129.506 E.49565
G1 X107.994 Y109.054 E.67527
G1 X107.617 Y108.294 F9000
G1 F2400
G1 X107.979 Y108.597 E.01559
G1 X123.021 Y108.597 E.49665
G1 X123.403 Y108.277 E.01645
G1 X123.403 Y129.903 E.71403
G1 X107.597 Y129.903 E.52187
G1 X107.597 Y108.31 E.71294
G1 E-3.5 F3600
;WIPE_START
G1 F7200
G1 X107.979 Y108.597 E-.22696
G1 X110.659 Y108.597 E-1.27304
;WIPE_END
G1 X107.582 Y101.758 F9000
G1 E5 F2400
;WIDTH:0.409945
G1 F1500
G1 X107.582 Y101.082 E.02063
G1 X107.979 Y101.074 E.01212
;WIDTH:0.394381
G1 X123.021 Y101.074 E.43959
;WIDTH:0.409946
G1 X123.418 Y101.082 E.01212
G1 X123.418 Y101.266 E.00562
G1 X123.418 Y101.758 E.01502
G1 X123.182 Y101.441 E.01206
G1 X123.021 Y101.426 E.00493
;WIDTH:0.394381
G1 X107.979 Y101.426 E.43959
;WIDTH:0.409945
G1 X107.818 Y101.441 E.00493
G1 X107.618 Y101.71 E.01023
G1 X107.21 Y100.71 F9000
;TYPE:External perimeter
;WIDTH:0.419999
G1 F1500
G1 X123.79 Y100.71 E.51985
G1 X123.79 Y101.266 E.01743
;WIDTH:0.45382
G1 X123.773 Y101.503 E.00812
;WIDTH:0.48764
G1 X123.756 Y101.741 E.00882
;WIDTH:0.52146
G1 X123.739 Y101.979 E.00949
G1 X123.739 Y108.021 E.24042
;WIDTH:0.525085
G1 X123.755 Y108.396 E.01505
;WIDTH:0.490057
G1 X123.772 Y108.687 E.01084
;WIDTH:0.455028
G1 X123.79 Y108.979 E.01002
;WIDTH:0.419999
G1 X123.79 Y130.29 E.66819
G1 X107.21 Y130.29 E.51985
G1 X107.21 Y108.979 E.66819
;WIDTH:0.45382
G1 X107.227 Y108.66 E.01091
;WIDTH:0.48764
G1 X107.244 Y108.34 E.01185
;WIDTH:0.52146
G1 X107.261 Y108.021 E.01271
G1 X107.261 Y101.979 E.24042
G1 X107.244 Y101.741 E.00949
;WIDTH:0.48764
G1 X107.227 Y101.503 E.00882
;WIDTH:0.45382
G1 X107.21 Y101.266 E.00812
;WIDTH:0.419999
G1 X107.21 Y100.77 E.01555
G1 X107.946 Y101.793 F9000
G1 F1500
G1 X123.075 Y101.798 E.47436
;WIDTH:0.45382
G1 X123.137 Y101.858 E.00295
;WIDTH:0.48764
G1 X123.199 Y101.918 E.00319
;WIDTH:0.52146
G1 X123.261 Y101.979 E.00346
G1 X123.261 Y108.021 E.24042
;WIDTH:0.525085
G1 X123.259 Y108.063 E.00169
G1 X123.18 Y108.112 E.00373
;WIDTH:0.490057
G1 X123.101 Y108.161 E.00346
;WIDTH:0.455028
G1 X123.021 Y108.21 E.00321
;WIDTH:0.419999
G1 X107.979 Y108.21 E.47163
;WIDTH:0.455028
G1 X107.899 Y108.161 E.00321
;WIDTH:0.490057
G1 X107.82 Y108.112 E.00346
;WIDTH:0.525086
G1 X107.741 Y108.063 E.00373
G1 X107.739 Y108.021 E.00169
;WIDTH:0.52146
G1 X107.739 Y101.979 E.24042
G1 X107.808 Y101.917 E.00369
;WIDTH:0.48764
G1 X107.877 Y101.855 E.00343
;WIDTH:0.45382
G1 X107.901 Y101.833 E.00111
G1 E-3.5 F3600
;WIPE_START
G1 F7200
G1 X111.059 Y101.826 E-1.5
;WIPE_END
G1 X108.408 Y109.332 F9000
G1 E5 F2400
;TYPE:Solid infill
;WIDTH:0.53634
G1 X108.364 Y109.289 E.00252
G1 X108.304 Y109.304 E.00254
G1 X108.289 Y109.364 E.00254
G1 X108.332 Y109.408 E.00252
G1 X108.392 Y109.392 E.00255
;WIDTH:0.439999
G1 X108.3 Y110.026 E.02115
G1 X109.026 Y109.3 E.0339
G1 X109.587 Y109.3 E.01852
G1 X108.3 Y110.587 E.06009
G1 X108.3 Y111.149 E.01856
G1 X110.149 Y109.3 E.08634
G1 X110.711 Y109.3 E.01856
G1 X108.3 Y111.711 E.11258
G1 X108.3 Y112.272 E.01852
G1 X111.272 Y109.3 E.13877
G1 X111.834 Y109.3 E.01856
G1 X108.3 Y112.834 E.16501
G1 X108.3 Y113.395 E.01852
G1 X112.395 Y109.3 E.19121
G1 X112.957 Y109.3 E.01856
G1 X108.3 Y113.957 E.21745
G1 X108.3 Y114.518 E.01852
G1 X113.518 Y109.3 E.24365
G1 X114.08 Y109.3 E.01856
G1 X108.3 Y115.08 E.26989
G1 X108.3 Y115.641 E.01852
G1 X114.641 Y109.3 E.29608
G1 X115.203 Y109.3 E.01856
G1 X108.3 Y116.203 E.32232
G1 X108.3 Y116.765 E.01856
G1 X115.765 Y109.3 E.34857
G1 X116.326 Y109.3 E.01852
G1 X108.3 Y117.326 E.37476
G1 X108.3 Y117.888 E.01856
G1 X116.888 Y109.3 E.401
G1 X117.449 Y109.3 E.01852
G1 X108.3 Y118.449 E.4272
G1 X108.3 Y119.011 E.01856
G1 X118.011 Y109.3 E.45344
G1 X118.572 Y109.3 E.01852
G1 X108.3 Y119.572 E.47964
G1 X108.3 Y120.134 E.01856
G1 X119.134 Y109.3 E.50588
G1 X119.695 Y109.3 E.01852
G1 X108.3 Y120.695 E.53207
G1 X108.3 Y121.257 E.01856
G1 X120.257 Y109.3 E.55831
G1 X120.819 Y109.3 E.01856
G1 X108.3 Y121.819 E.58456
G1 X108.3 Y122.38 E.01852
G1 X121.38 Y109.3 E.61075
G1 X121.942 Y109.3 E.01856
G1 X108.3 Y122.942 E.63699
G1 X108.3 Y123.503 E.01852
G1 X122.503 Y109.3 E.66319
G1 X122.7 Y109.665 E.01369
G1 X108.3 Y124.065 E.67239
G1 X108.3 Y124.626 E.01852
G1 X122.7 Y110.226 E.67239
G1 X122.7 Y110.788 E.01856
G1 X108.3 Y125.188 E.67239
G1 X108.3 Y125.749 E.01852
G1 X122.7 Y111.349 E.67239
G1 X122.7 Y111.911 E.01856
G1 X108.3 Y126.311 E.67239
G1 X108.3 Y126.873 E.01856
G1 X122.7 Y112.472 E.67241
G1 X122.7 Y113.034 E.01856
G1 X108.3 Y127.434 E.67239
G1 X108.3 Y127.996 E.01856
G1 X122.7 Y113.595 E.67241
G1 X122.7 Y114.157 E.01856
G1 X108.3 Y128.557 E.67239
G1 X108.381 Y129.348 F9000
;WIDTH:0.38292
G1 F2400
G1 X108.17 Y129.33 E.00599
;WIDTH:0.41146
G1 X108.235 Y129.225 E.00378
;WIDTH:0.439999
G1 X108.3 Y129.119 E.00411
G1 X122.7 Y114.719 E.67239
G1 X122.7 Y115.28 E.01852
G1 X108.78 Y129.2 E.64997
G1 X109.342 Y129.2 E.01856
G1 X122.7 Y115.842 E.62373
G1 X122.7 Y116.403 E.01852
G1 X109.903 Y129.2 E.59754
G1 X110.465 Y129.2 E.01856
G1 X122.7 Y116.965 E.57129
G1 X122.7 Y117.526 E.01852
G1 X111.026 Y129.2 E.5451
G1 X111.588 Y129.2 E.01856
G1 X122.7 Y118.088 E.51886
G1 X122.7 Y118.649 E.01852
G1 X112.149 Y129.2 E.49266
G1 X112.711 Y129.2 E.01856
G1 X122.7 Y119.211 E.46642
G1 X122.7 Y119.773 E.01856
G1 X113.273 Y129.2 E.44018
G1 X113.834 Y129.2 E.01852
G1 X122.7 Y120.334 E.41398
G1 X122.7 Y120.896 E.01856
G1 X114.396 Y129.2 E.38774
G1 X114.957 Y129.2 E.01852
G1 X122.7 Y121.457 E.36155
G1 X122.7 Y122.019 E.01856
G1 X115.519 Y129.2 E.33531
G1 X116.08 Y129.2 E.01852
G1 X122.7 Y122.58 E.30911
G1 X122.7 Y123.142 E.01856
G1 X116.642 Y129.2 E.28287
G1 X117.203 Y129.2 E.01852
G1 X122.7 Y123.703 E.25667
G1 X122.7 Y124.265 E.01856
G1 X117.765 Y129.2 E.23043
G1 X118.327 Y129.2 E.01856
G1 X122.7 Y124.827 E.20419
G1 X122.7 Y125.388 E.01852
G1 X118.888 Y129.2 E.178
G1 X119.45 Y129.2 E.01856
G1 X122.7 Y125.95 E.15175
G1 X122.7 Y126.511 E.01852
G1 X120.011 Y129.2 E.12556
G1 X120.573 Y129.2 E.01856
G1 X122.7 Y127.073 E.09932
G1 X122.7 Y127.634 E.01852
G1 X121.134 Y129.2 E.07312
G1 X121.696 Y129.2 E.01856
G1 X122.7 Y128.196 E.04688
G1 X122.911 Y128.594 E.01487
;WIDTH:0.38292
G1 X122.84 Y128.575 E.00208
G1 X122.859 Y128.646 E.00208
G1 X122.9 Y128.635 E.0012
;WIDTH:0.41146
G1 X122.8 Y128.696 E.00359
;WIDTH:0.439999
G1 X122.7 Y128.757 E.00387
G1 X122.257 Y129.2 E.02069
; stop printing object support_tof_actionneur_panneaux_solaires.stl id:0 copy 0
;LAYER_CHANGE
;Z:0.6
;HEIGHT:0.2
;BEFORE_LAYER_CHANGE
G92 E0
;0.6


G1 E-3.5 F3600
;WIPE_START
