; generated by PrusaSlicer 2.6.1+win64 on 2024-04-09 at 20:21:14 UTC

; 

; external perimeters extrusion width = 0.42mm
; perimeters extrusion width = 0.44mm
; infill extrusion width = 0.44mm
; solid infill extrusion width = 0.44mm
; top infill extrusion width = 0.40mm
; support material extrusion width = 0.36mm
; first layer extrusion width = 0.42mm

M201 X500 Y500 Z100 E5000 ; sets maximum accelerations, mm/sec^2
M203 X500 Y500 Z10 E60 ; sets maximum feedrates, mm / sec
M204 S500 T1000 ; sets acceleration (S) and retract acceleration (R), mm/sec^2
M205 X8.00 Y8.00 Z0.40 E5.00 ; sets the jerk limits, mm/sec
M205 S0 T0 ; sets the minimum extruding and travel feed rate, mm/sec
;TYPE:Custom
G90 ; use absolute coordinates
M83 ; extruder relative mode
M104 S150 ; set temporary nozzle temp to prevent oozing during homing
M140 S60 ; set final bed temp
G4 S30 ; allow partial nozzle warmup
G28 ; home all axis
G1 Z50 F240
G1 X2.0 Y10 F3000
M104 S215 ; set final nozzle temp
M190 S60 ; wait for bed temp to stabilize
M109 S215 ; wait for nozzle temp to stabilize
G1 Z0.28 F240
G92 E0
G1 X2.0 Y140 E10 F1500 ; prime the nozzle
G1 X2.3 Y140 F5000
G92 E0
G1 X2.3 Y10 E10 F1200 ; prime the nozzle
G92 E0
G21 ; set units to millimeters
G90 ; use absolute coordinates
M83 ; use relative distances for extrusion
; Filament gcode
M107
;LAYER_CHANGE
;Z:0.2
;HEIGHT:0.2
;BEFORE_LAYER_CHANGE
G92 E0
;0.2


G1 E-5 F3600
G1 Z.2 F9000
;AFTER_LAYER_CHANGE
;0.2
G1 X101.382 Y99.57
G1 E5 F2400
M204 S500
;TYPE:Skirt/Brim
;WIDTH:0.42
G1 F1200
G1 X102.105 Y98.943 E.03001
G1 X103.205 Y98.236 E.041
G1 X106.787 Y96.081 E.13107
G1 X107.576 Y95.735 E.02701
G1 X109.015 Y95.325 E.04691
G1 X114.115 Y94.294 E.16314
G1 X114.766 Y94.228 E.02052
G1 X116.572 Y94.272 E.05664
G1 X121.463 Y95.131 E.1557
G1 X122.987 Y95.556 E.04961
G1 X123.86 Y95.955 E.0301
G1 X129.773 Y99.751 E.22031
G1 X130.497 Y100.379 E.03005
G1 X131.639 Y101.773 E.0565
G1 X135.093 Y107.561 E.21134
G1 X135.764 Y108.981 E.04924
G1 X137.67 Y114.352 E.17869
G1 X137.993 Y116.177 E.05811
G1 X137.989 Y117.137 E.0301
G1 X137.81 Y118.348 E.03838
G1 X137.536 Y119.268 E.0301
G1 X136.933 Y120.56 E.0447
G1 X134.428 Y125.244 E.16655
G1 X134.046 Y125.811 E.02144
G1 X129.616 Y131.133 E.21711
G1 X128.819 Y132.051 E.03812
G1 X128.094 Y132.678 E.03005
G1 X126.77 Y133.504 E.04893
G1 X122.918 Y135.432 E.13506
G1 X121.201 Y135.993 E.05664
G1 X114.857 Y136.72 E.20021
G1 X113.332 Y136.694 E.04782
G1 X112.573 Y136.575 E.02409
G1 X111.161 Y136.171 E.04605
G1 X104.627 Y133.702 E.21901
G1 X103.477 Y133.051 E.04143
G1 X98.53 Y129.764 E.18623
G1 X97.311 Y128.666 E.05144
G1 X96.772 Y127.995 E.02699
G1 X96.2 Y127.061 E.03434
G1 X95.87 Y126.348 E.02463
G1 X95.402 Y124.731 E.05278
G1 X94.227 Y114.994 E.30751
G1 X94.241 Y114.142 E.02672
G1 X94.493 Y112.558 E.05029
G1 X95.877 Y107.377 E.16814
G1 X96.569 Y105.75 E.05544
G1 X96.986 Y105.065 E.02514
G1 X101.345 Y99.617 E.21877
; printing object roue.stl id:0 copy 0
G1 E-3.5 F3600
;WIPE_START
G1 F7200
G1 X102.105 Y98.943 E-.48251
G1 X103.205 Y98.236 E-.62112
G1 X103.92 Y97.806 E-.39637
;WIPE_END
G1 X116.557 Y97.762 F9000
G1 E5 F2400
;TYPE:Support material
G1 F1200
G1 X117.148 Y97.932 E.01928
G1 X118.127 Y98.554 E.03637
G1 X118.389 Y98.834 E.01202
G1 X119.673 Y98.457 E.04196
G1 X120.879 Y98.457 E.03781
G1 X122.035 Y98.796 E.03777
G1 X123.049 Y99.448 E.0378
G1 X123.838 Y100.359 E.03779
G1 X124.408 Y101.606 E.04299
G1 X125.775 Y101.605 E.04286
G1 X126.935 Y101.944 E.03789
G1 X127.948 Y102.593 E.03772
G1 X128.739 Y103.503 E.0378
G1 X129.24 Y104.599 E.03778
G1 X129.413 Y105.795 E.03789
G1 X129.242 Y106.989 E.03782
G1 X129.078 Y107.348 E.01238
G1 X130.389 Y107.732 E.04283
G1 X131.403 Y108.382 E.03776
G1 X132.193 Y109.292 E.03778
G1 X132.694 Y110.386 E.03773
G1 X132.867 Y111.582 E.03789
G1 X132.696 Y112.775 E.03779
G1 X132.593 Y113.001 E.00779
G1 X133.18 Y113.39 E.02208
G1 X133.985 Y114.325 E.03868
G1 X134.485 Y115.474 E.03929
G1 X134.648 Y116.643 E.03701
G1 X134.469 Y117.854 E.03838
G1 X133.956 Y118.967 E.03843
G1 X133.165 Y119.875 E.03776
G1 X132.527 Y120.299 E.02402
G1 X132.009 Y120.6 E.01878
G1 X132.119 Y121.359 E.02405
G1 X131.948 Y122.555 E.03788
G1 X131.45 Y123.651 E.03775
G1 X130.661 Y124.563 E.03781
G1 X129.648 Y125.216 E.03779
G1 X128.489 Y125.557 E.03788
G1 X127.584 Y125.558 E.02838
G1 X127.738 Y126.632 E.03402
G1 X127.565 Y127.826 E.03783
G1 X127.064 Y128.922 E.03778
G1 X126.271 Y129.834 E.03789
G1 X125.258 Y130.484 E.03774
G1 X124.103 Y130.822 E.03773
G1 X123.234 Y130.821 E.02725
G1 X122.42 Y131.761 E.03899
G1 X121.406 Y132.413 E.0378
G1 X120.25 Y132.752 E.03777
G1 X119.044 Y132.752 E.03781
G1 X117.887 Y132.412 E.03781
G1 X117.268 Y132.014 E.02307
G1 X116.676 Y132.572 E.02551
G1 X115.656 Y133.115 E.03623
G1 X114.501 Y133.361 E.03703
G1 X113.47 Y133.319 E.03235
G1 X112.355 Y133.012 E.03626
G1 X111.191 Y132.264 E.04338
G1 X110.499 Y131.406 E.03456
G1 X109.917 Y130.176 E.04267
G1 X109.339 Y130.546 E.02152
G1 X108.182 Y130.885 E.0378
G1 X106.975 Y130.884 E.03784
G1 X105.82 Y130.543 E.03776
G1 X104.804 Y129.887 E.03792
G1 X104.017 Y128.977 E.03772
G1 X103.485 Y127.807 E.0403
G1 X102.947 Y127.881 E.01703
G1 X102.297 Y127.788 E.02059
G1 X101.526 Y127.597 E.0249
G1 X100.804 Y127.215 E.02561
G1 X100.403 Y126.954 E.015
G1 X99.651 Y126.231 E.03271
G1 X99.079 Y125.297 E.03434
G1 X98.751 Y124.294 E.03309
G1 X98.683 Y122.948 E.04226
G1 X99.028 Y121.924 E.03388
G1 X98.779 Y121.636 E.01194
G1 X98.278 Y120.54 E.03778
G1 X98.106 Y119.347 E.03779
G1 X98.278 Y118.154 E.03779
G1 X98.642 Y117.357 E.02747
G1 X98.256 Y116.912 E.01847
G1 X97.756 Y115.816 E.03777
G1 X97.584 Y114.623 E.03779
G1 X97.756 Y113.43 E.03779
G1 X98.256 Y112.333 E.0378
G1 X99.046 Y111.422 E.03781
G1 X99.396 Y111.197 E.01305
G1 X99.14 Y110.635 E.01936
G1 X98.968 Y109.442 E.03779
G1 X99.14 Y108.249 E.03779
G1 X99.641 Y107.152 E.03781
G1 X100.43 Y106.241 E.03779
G1 X101.444 Y105.59 E.03778
G1 X102.519 Y105.274 E.03513
G1 X102.477 Y104.983 E.00922
G1 X102.647 Y103.791 E.03775
G1 X103.145 Y102.696 E.03772
G1 X103.935 Y101.782 E.03788
G1 X104.946 Y101.129 E.03774
G1 X106.103 Y100.788 E.03782
G1 X106.61 Y100.787 E.0159
G1 X106.725 Y100.537 E.00863
G1 X107.514 Y99.626 E.03779
G1 X108.528 Y98.975 E.03778
G1 X109.684 Y98.635 E.03778
G1 X110.89 Y98.635 E.03781
G1 X112.046 Y98.975 E.03778
G1 X112.21 Y99.08 E.00611
G1 X112.622 Y98.602 E.01979
G1 X113.631 Y97.949 E.03768
G1 X114.784 Y97.605 E.03773
G1 X115.988 Y97.598 E.03775
G1 X116.503 Y97.746 E.0168
G1 X115.292 Y103.04 F9000
G1 F1200
G1 X116.13 Y103.054 E.02628
G1 X116.561 Y103.083 E.01354
G1 X116.982 Y103.126 E.01327
G1 X117.81 Y103.254 E.02627
G1 X118.232 Y103.341 E.01351
G1 X119.044 Y103.552 E.02631
G1 X119.455 Y103.682 E.01352
G1 X120.241 Y103.975 E.0263
G1 X120.636 Y104.146 E.0135
G1 X121.388 Y104.517 E.02629
G1 X121.765 Y104.727 E.01353
G1 X122.438 Y105.148 E.02489
G1 X123.166 Y105.675 E.02818
G1 X123.809 Y106.213 E.02629
G1 X124.126 Y106.505 E.01351
G1 X124.711 Y107.106 E.0263
G1 X124.996 Y107.429 E.01351
G1 X125.517 Y108.086 E.02629
G1 X125.767 Y108.437 E.01351
G1 X126.001 Y108.79 E.01328
G1 X126.429 Y109.511 E.02629
G1 X126.629 Y109.893 E.01352
G1 X126.981 Y110.654 E.02629
G1 X127.286 Y111.452 E.02679
G1 X127.532 Y112.254 E.0263
G1 X127.637 Y112.672 E.01351
G1 X127.799 Y113.494 E.02627
G1 X127.861 Y113.921 E.01353
G1 X127.94 Y114.756 E.0263
G1 X127.958 Y115.186 E.01349
G1 X127.951 Y116.025 E.02631
G1 X127.926 Y116.447 E.01325
G1 X127.886 Y116.876 E.01351
G1 X127.765 Y117.706 E.0263
G1 X127.681 Y118.129 E.01352
G1 X127.477 Y118.942 E.02628
G1 X127.351 Y119.354 E.01351
G1 X127.065 Y120.143 E.02631
G1 X126.897 Y120.54 E.01352
G1 X126.532 Y121.295 E.02629
G1 X126.325 Y121.673 E.01351
G1 X125.886 Y122.387 E.02628
G1 X125.641 Y122.742 E.01352
G1 X125.131 Y123.408 E.0263
G1 X124.567 Y124.049 E.02677
G1 X123.972 Y124.639 E.02627
G1 X123.65 Y124.927 E.01355
G1 X122.998 Y125.454 E.02629
G1 X122.656 Y125.702 E.01325
G1 X122.299 Y125.944 E.01352
G1 X121.581 Y126.377 E.02629
G1 X121.201 Y126.581 E.01352
G1 X120.443 Y126.939 E.02628
G1 X119.648 Y127.251 E.02678
G1 X118.848 Y127.504 E.02631
G1 X118.431 Y127.612 E.01351
G1 X117.61 Y127.782 E.02629
G1 X117.184 Y127.847 E.01351
G1 X116.35 Y127.933 E.02629
G1 X115.919 Y127.955 E.01353
G1 X115.081 Y127.955 E.02627
G1 X114.65 Y127.933 E.01353
G1 X113.816 Y127.847 E.02629
G1 X113.39 Y127.782 E.01351
G1 X112.569 Y127.612 E.02629
G1 X112.152 Y127.504 E.01351
G1 X111.394 Y127.265 E.02492
G1 X110.955 Y127.104 E.01466
G1 X110.171 Y126.765 E.02678
G1 X109.426 Y126.381 E.02628
G1 X109.053 Y126.165 E.01351
G1 X108.35 Y125.707 E.02631
G1 X108.002 Y125.454 E.01349
G1 X107.349 Y124.927 E.02631
G1 X107.028 Y124.639 E.01352
G1 X106.433 Y124.049 E.02627
G1 X106.147 Y123.736 E.01329
G1 X105.868 Y123.408 E.0135
G1 X105.358 Y122.742 E.0263
G1 X105.114 Y122.387 E.01351
G1 X104.674 Y121.673 E.0263
G1 X104.467 Y121.295 E.01351
G1 X104.102 Y120.54 E.02629
G1 X103.935 Y120.143 E.0135
G1 X103.649 Y119.354 E.02631
G1 X103.523 Y118.942 E.01351
G1 X103.328 Y118.173 E.02487
G1 X103.167 Y117.288 E.0282
G1 X103.074 Y116.455 E.02628
G1 X103.049 Y116.025 E.01351
G1 X103.042 Y115.186 E.02631
G1 X103.06 Y114.756 E.01349
G1 X103.138 Y113.921 E.02629
G1 X103.2 Y113.494 E.01353
G1 X103.363 Y112.672 E.02628
G1 X103.468 Y112.254 E.01351
G1 X103.7 Y111.494 E.02491
G1 X103.858 Y111.054 E.01466
G1 X104.019 Y110.654 E.01352
G1 X104.37 Y109.893 E.02628
G1 X104.571 Y109.511 E.01353
G1 X104.975 Y108.828 E.02488
G1 X105.483 Y108.086 E.02819
G1 X106.004 Y107.429 E.02629
G1 X106.289 Y107.106 E.01351
G1 X106.874 Y106.505 E.0263
G1 X107.19 Y106.213 E.01349
G1 X107.834 Y105.675 E.02631
G1 X108.178 Y105.415 E.01352
G1 X108.835 Y104.97 E.02488
G1 X109.235 Y104.727 E.01467
G1 X109.611 Y104.517 E.0135
G1 X110.363 Y104.146 E.02629
G1 X110.759 Y103.975 E.01352
G1 X111.545 Y103.682 E.0263
G1 X111.956 Y103.552 E.01352
G1 X112.767 Y103.341 E.02627
G1 X113.189 Y103.254 E.01351
G1 X114.018 Y103.126 E.0263
G1 X114.447 Y103.082 E.01352
G1 X115.236 Y103.041 E.02477
G1 E-3.5 F3600
;WIPE_START
G1 F7200
G1 X114.447 Y103.082 E-.37528
G1 X114.018 Y103.126 E-.20484
G1 X113.189 Y103.254 E-.39844
G1 X112.767 Y103.341 E-.20467
G1 X112.122 Y103.509 E-.31677
;WIPE_END
G1 X133.935 Y118.607 F9000
G1 E5 F2400
G1 F1200
G1 X133.935 Y115.06 E.11121
G1 X133.695 Y114.508 E.01887
G1 X133.516 Y114.3 E.0086
G1 X133.516 Y118.955 E.14595
G1 X133.097 Y119.436 E.02
G1 X133.097 Y113.814 E.17627
G1 X132.953 Y113.647 E.00691
G1 X132.678 Y113.465 E.01034
G1 X132.678 Y119.791 E.19835
G1 X132.259 Y120.062 E.01565
G1 X132.259 Y110.252 E.30759
G1 X131.904 Y109.477 E.02673
G1 X131.84 Y109.404 E.00304
G1 X131.84 Y120.305 E.34179
G1 X131.64 Y120.421 E.00725
G1 X131.776 Y121.359 E.02972
G1 X131.619 Y122.459 E.03484
G1 X131.421 Y122.895 E.01501
G1 X131.421 Y108.921 E.43814
G1 X131.178 Y108.641 E.01162
G1 X131.002 Y108.528 E.00656
G1 X131.002 Y123.65 E.47414
G1 X130.583 Y124.135 E.0201
G1 X130.583 Y108.259 E.49778
G1 X130.247 Y108.044 E.01251
G1 X130.164 Y108.019 E.00272
G1 X130.164 Y124.48 E.51612
G1 X129.745 Y124.75 E.01563
G1 X129.745 Y107.896 E.52845
G1 X129.326 Y107.774 E.01368
G1 X129.326 Y124.957 E.53876
G1 X128.907 Y125.081 E.0137
G1 X128.907 Y107.652 E.54647
G1 X128.607 Y107.564 E.0098
G1 X128.907 Y106.905 E.0227
G1 X128.907 Y104.687 E.06954
G1 X128.488 Y103.772 E.03155
G1 X128.488 Y125.204 E.67199
G1 X128.44 Y125.218 E.00157
G1 X128.069 Y125.218 E.01163
G1 X128.069 Y117.917 E.22892
G1 X127.913 Y118.627 E.02279
G1 X127.65 Y119.527 E.0294
G1 X127.65 Y125.388 E.18377
G1 X128.069 Y114.257 F9000
G1 F1200
G1 X128.069 Y103.25 E.34512
G1 X127.724 Y102.853 E.01649
G1 X127.65 Y102.806 E.00275
G1 X127.65 Y111.475 E.27181
G1 X127.455 Y110.923 E.01836
G1 X127.231 Y110.381 E.01839
G1 X127.231 Y102.537 E.24594
G1 X126.812 Y102.269 E.01559
G1 X126.812 Y109.512 E.2271
G1 X126.393 Y108.78 E.02645
G1 X126.393 Y102.139 E.20822
G1 X125.974 Y102.016 E.01369
G1 X125.974 Y108.143 E.19211
G1 X125.555 Y107.579 E.02203
G1 X125.555 Y101.944 E.17668
G1 X125.136 Y101.945 E.01314
G1 X125.136 Y107.076 E.16088
G1 X124.717 Y106.618 E.01946
G1 X124.717 Y101.945 E.14652
G1 X124.299 Y101.945 E.01311
G1 X124.299 Y106.203 E.13351
G1 X123.88 Y105.825 E.01769
G1 X123.88 Y101.266 E.14294
G1 X123.55 Y100.544 E.02489
G1 X123.461 Y100.441 E.00427
G1 X123.461 Y105.476 E.15787
G1 X123.042 Y105.156 E.01653
G1 X123.042 Y99.958 E.16298
G1 X122.825 Y99.707 E.0104
G1 X122.623 Y99.577 E.00753
G1 X122.623 Y104.864 E.16577
G1 X122.204 Y104.596 E.01559
G1 X122.204 Y99.308 E.1658
G1 X121.893 Y99.108 E.01159
G1 X121.785 Y99.077 E.00352
G1 X121.785 Y104.349 E.1653
G1 X121.366 Y104.123 E.01493
G1 X121.366 Y98.954 E.16207
G1 X120.947 Y98.831 E.01369
G1 X120.947 Y103.917 E.15947
G1 X120.528 Y103.729 E.0144
G1 X120.528 Y98.796 E.15467
G1 X120.109 Y98.796 E.01314
G1 X120.109 Y103.559 E.14934
G1 X119.69 Y103.405 E.014
G1 X119.69 Y98.806 E.1442
G1 X119.271 Y98.929 E.01369
G1 X119.271 Y103.268 E.13605
G1 X118.852 Y103.147 E.01367
G1 X118.852 Y99.052 E.1284
G1 X118.433 Y99.175 E.01369
G1 X118.433 Y103.04 E.12118
G1 X118.014 Y102.949 E.01344
G1 X118.014 Y98.93 E.12601
G1 X117.909 Y98.817 E.00484
G1 X117.595 Y98.618 E.01166
G1 X117.595 Y102.873 E.13341
G1 X117.176 Y102.81 E.01329
G1 X117.176 Y98.352 E.13978
G1 X117.007 Y98.244 E.00629
G1 X116.757 Y98.173 E.00815
G1 X116.757 Y102.762 E.14388
G1 X116.338 Y102.728 E.01318
G1 X116.338 Y98.052 E.14661
G1 X115.941 Y97.938 E.01295
G1 X115.919 Y97.938 E.00069
G1 X115.919 Y102.707 E.14953
G1 X115.5 Y102.7 E.01314
G1 X115.5 Y97.94 E.14925
G1 X115.081 Y97.942 E.01314
G1 X115.081 Y102.707 E.1494
G1 X114.662 Y102.728 E.01315
G1 X114.662 Y97.995 E.1484
G1 X114.243 Y98.12 E.01371
G1 X114.243 Y102.762 E.14555
G1 X113.824 Y102.81 E.01322
G1 X113.824 Y98.245 E.14313
G1 X113.774 Y98.26 E.00164
G1 X113.405 Y98.499 E.01378
G1 X113.405 Y102.873 E.13714
G1 X112.986 Y102.949 E.01335
G1 X112.986 Y98.771 E.131
G1 X112.847 Y98.861 E.00519
G1 X112.567 Y99.186 E.01345
G1 X112.567 Y103.04 E.12084
G1 X112.148 Y103.146 E.01355
G1 X112.148 Y99.444 E.11607
G1 X111.904 Y99.287 E.0091
G1 X111.729 Y99.235 E.00572
G1 X111.729 Y103.268 E.12645
G1 X111.31 Y103.405 E.01382
G1 X111.31 Y99.112 E.1346
G1 X110.891 Y98.989 E.01369
G1 X110.891 Y103.558 E.14326
G1 X110.472 Y103.729 E.01419
G1 X110.472 Y98.975 E.14906
G1 X110.053 Y98.975 E.01314
G1 X110.053 Y103.917 E.15495
G1 X109.634 Y104.123 E.01464
G1 X109.634 Y99.004 E.1605
G1 X109.215 Y99.127 E.01369
G1 X109.215 Y104.349 E.16373
G1 X108.796 Y104.595 E.01523
G1 X108.796 Y99.25 E.16759
G1 X108.67 Y99.287 E.00412
G1 X108.377 Y99.475 E.01092
G1 X108.377 Y104.864 E.16897
G1 X107.958 Y105.156 E.01601
G1 X107.958 Y99.744 E.16969
G1 X107.738 Y99.886 E.00821
G1 X107.539 Y100.115 E.00951
G1 X107.539 Y105.476 E.16809
G1 X107.12 Y105.824 E.01708
G1 X107.12 Y100.599 E.16383
G1 X107.013 Y100.723 E.00514
G1 X106.829 Y101.126 E.01389
G1 X106.701 Y101.127 E.00401
G1 X106.701 Y106.203 E.15915
G1 X106.283 Y106.618 E.01847
G1 X106.283 Y101.127 E.17217
G1 X106.152 Y101.127 E.00411
G1 X105.864 Y101.212 E.00942
G1 X105.864 Y107.075 E.18383
G1 X105.445 Y107.578 E.02053
G1 X105.445 Y101.336 E.19571
G1 X105.089 Y101.441 E.01164
G1 X105.026 Y101.482 E.00236
G1 X105.026 Y108.142 E.20882
G1 X104.607 Y108.779 E.02391
G1 X104.607 Y101.752 E.22033
G1 X104.188 Y102.022 E.01563
G1 X104.188 Y109.511 E.23481
G1 X103.769 Y110.38 E.03025
G1 X103.769 Y102.492 E.24732
G1 X103.433 Y102.881 E.01612
G1 X103.35 Y103.065 E.00633
G1 X103.35 Y111.473 E.26363
G1 X103.138 Y112.176 E.02302
G1 X102.931 Y113.076 E.02896
G1 X102.931 Y104.202 E.27824
G1 X102.819 Y104.982 E.02471
G1 X102.897 Y105.517 E.01695
G1 X102.512 Y105.63 E.01258
G1 X102.512 Y127.476 E.68497
G1 X102.931 Y127.536 E.01327
G1 X102.931 Y117.919 E.30153
G1 X103.086 Y118.627 E.02272
G1 X103.35 Y119.528 E.02944
G1 X103.35 Y127.483 E.24942
G1 X103.689 Y127.437 E.01073
G1 X103.769 Y127.611 E.006
G1 X103.769 Y120.622 E.21914
G1 X104.188 Y121.491 E.03025
G1 X104.188 Y128.532 E.22077
G1 X104.306 Y128.792 E.00895
G1 X104.607 Y129.14 E.01443
G1 X104.607 Y122.224 E.21685
G1 X105.026 Y122.858 E.02383
G1 X105.029 Y129.629 E.2123
