; generated by PrusaSlicer 2.6.1+win64 on 2024-04-12 at 21:15:31 UTC

; 

; external perimeters extrusion width = 0.42mm
; perimeters extrusion width = 0.44mm
; infill extrusion width = 0.44mm
; solid infill extrusion width = 0.44mm
; top infill extrusion width = 0.40mm
; first layer extrusion width = 0.42mm

M201 X500 Y500 Z100 E5000 ; sets maximum accelerations, mm/sec^2
M203 X500 Y500 Z10 E60 ; sets maximum feedrates, mm / sec
M204 S500 T1000 ; sets acceleration (S) and retract acceleration (R), mm/sec^2
M205 X8.00 Y8.00 Z0.40 E5.00 ; sets the jerk limits, mm/sec
M205 S0 T0 ; sets the minimum extruding and travel feed rate, mm/sec
;TYPE:Custom
G90 ; use absolute coordinates
M83 ; extruder relative mode
M104 S150 ; set temporary nozzle temp to prevent oozing during homing
M140 S60 ; set final bed temp
G4 S30 ; allow partial nozzle warmup
G28 ; home all axis
G1 Z50 F240
G1 X2.0 Y10 F3000
M104 S215 ; set final nozzle temp
M190 S60 ; wait for bed temp to stabilize
M109 S215 ; wait for nozzle temp to stabilize
G1 Z0.28 F240
G92 E0
G1 X2.0 Y140 E10 F1500 ; prime the nozzle
G1 X2.3 Y140 F5000
G92 E0
G1 X2.3 Y10 E10 F1200 ; prime the nozzle
G92 E0
G21 ; set units to millimeters
G90 ; use absolute coordinates
M83 ; use relative distances for extrusion
; Filament gcode
M107
;LAYER_CHANGE
;Z:0.2
;HEIGHT:0.2
;BEFORE_LAYER_CHANGE
G92 E0
;0.2


G1 E-5 F3600
G1 Z.2 F9000
;AFTER_LAYER_CHANGE
;0.2
G1 X106.318 Y96.341
G1 E5 F2400
M204 S500
;TYPE:Skirt/Brim
;WIDTH:0.42
G1 F1200
G1 X107.524 Y95.242 E.05116
G1 X108.934 Y94.191 E.05514
G1 X110.444 Y93.289 E.05515
G1 X112.037 Y92.546 E.05511
G1 X113.698 Y91.968 E.05514
G1 X115.409 Y91.562 E.05514
G1 X117.152 Y91.332 E.05512
G1 X118.712 Y91.279 E.04894
G1 X120.207 Y91.358 E.04694
G1 X121.947 Y91.617 E.05516
G1 X123.65 Y92.052 E.05511
G1 X125.301 Y92.658 E.05514
G1 X126.882 Y93.429 E.05515
G1 X128.375 Y94.356 E.0551
G1 X129.67 Y95.348 E.05115
G1 X130.954 Y96.55 E.05515
G1 X131.821 Y97.518 E.04075
G1 X132.874 Y98.927 E.05515
G1 X133.778 Y100.435 E.05513
G1 X134.523 Y102.028 E.05514
G1 X135.103 Y103.688 E.05513
G1 X135.51 Y105.398 E.05511
G1 X135.731 Y107.014 E.05114
G1 X135.798 Y108.772 E.05516
G1 X135.731 Y110.07 E.04075
G1 X135.487 Y111.811 E.05512
G1 X135.066 Y113.519 E.05516
G1 X134.474 Y115.174 E.05511
G1 X133.717 Y116.761 E.05513
G1 X132.802 Y118.263 E.05514
G1 X131.74 Y119.664 E.05512
G1 X130.631 Y120.861 E.05116
G1 X129.316 Y122.027 E.0551
G1 X127.888 Y123.054 E.05515
G1 X126.364 Y123.93 E.05512
G1 X124.941 Y124.573 E.04896
G1 X123.528 Y125.069 E.04695
G1 X121.822 Y125.492 E.05511
G1 X120.08 Y125.738 E.05516
G1 X118.323 Y125.806 E.05513
G1 X116.569 Y125.695 E.05511
G1 X114.834 Y125.406 E.05515
G1 X113.259 Y124.982 E.05114
G1 X111.614 Y124.36 E.05514
G1 X110.041 Y123.574 E.05513
G1 X108.719 Y122.745 E.04893
G1 X107.524 Y121.842 E.04696
G1 X106.229 Y120.653 E.05512
G1 X105.141 Y119.438 E.05114
G1 X104.102 Y118.019 E.05514
G1 X103.213 Y116.502 E.05513
G1 X102.483 Y114.903 E.05511
G1 X101.92 Y113.24 E.05505
G1 X101.528 Y111.523 E.05522
G1 X101.313 Y109.778 E.05513
G1 X101.268 Y108.478 E.04078
G1 X101.365 Y106.723 E.05511
G1 X101.613 Y105.111 E.05114
G1 X102.05 Y103.407 E.05516
G1 X102.657 Y101.757 E.05512
G1 X103.43 Y100.178 E.05512
G1 X104.102 Y99.065 E.04076
G1 X105.141 Y97.646 E.05514
G1 X106.278 Y96.386 E.05321
G1 X106.557 Y96.638 F9000
G1 F1200
G1 X107.769 Y95.529 E.05151
G1 X109.148 Y94.502 E.05391
G1 X110.625 Y93.62 E.05394
G1 X112.184 Y92.893 E.05393
G1 X113.808 Y92.328 E.05391
G1 X115.482 Y91.932 E.05394
G1 X117.187 Y91.708 E.05392
G1 X118.709 Y91.656 E.04775
G1 X120.166 Y91.733 E.04575
G1 X121.867 Y91.986 E.05392
G1 X123.534 Y92.411 E.05394
G1 X125.149 Y93.003 E.05393
G1 X126.695 Y93.757 E.05393
G1 X128.062 Y94.598 E.05032
G1 X129.431 Y95.64 E.05394
G1 X130.687 Y96.815 E.05393
G1 X131.528 Y97.755 E.03955
G1 X132.558 Y99.133 E.05394
G1 X133.442 Y100.608 E.05392
G1 X134.172 Y102.165 E.05392
G1 X134.707 Y103.679 E.05035
G1 X135.118 Y105.349 E.05392
G1 X135.356 Y107.053 E.05395
G1 X135.421 Y108.772 E.05394
G1 X135.31 Y110.488 E.05392
G1 X135.025 Y112.184 E.05392
G1 X134.569 Y113.843 E.05395
G1 X133.946 Y115.446 E.05392
G1 X133.164 Y116.978 E.05393
G1 X132.23 Y118.422 E.05392
G1 X131.455 Y119.417 E.03954
G1 X130.281 Y120.675 E.05395
G1 X129.076 Y121.736 E.05034
G1 X127.68 Y122.74 E.05392
G1 X126.188 Y123.596 E.05393
G1 X124.617 Y124.297 E.05394
G1 X123.424 Y124.707 E.03955
G1 X121.755 Y125.121 E.05392
G1 X120.052 Y125.362 E.05393
G1 X118.333 Y125.429 E.05394
G1 X116.616 Y125.321 E.05394
G1 X114.92 Y125.039 E.05391
G1 X113.37 Y124.622 E.05033
G1 X111.761 Y124.013 E.05394
G1 X110.222 Y123.244 E.05394
G1 X108.933 Y122.434 E.04773
G1 X107.769 Y121.555 E.04573
G1 X106.501 Y120.392 E.05395
G1 X105.358 Y119.107 E.05392
G1 X104.414 Y117.808 E.05035
G1 X103.545 Y116.324 E.05392
G1 X102.831 Y114.759 E.05394
G1 X102.281 Y113.132 E.05385
G1 X101.898 Y111.453 E.054
G1 X101.727 Y110.203 E.03956
G1 X101.646 Y108.485 E.05393
G1 X101.739 Y106.767 E.05395
G1 X101.983 Y105.181 E.05031
G1 X102.411 Y103.515 E.05393
G1 X103.006 Y101.901 E.05394
G1 X103.545 Y100.76 E.03957
G1 X104.414 Y99.276 E.05392
G1 X105.43 Y97.888 E.05393
G1 X106.517 Y96.682 E.05091
; printing object roue.stl id:0 copy 0
G1 E-3.5 F3600
;WIPE_START
G1 F7200
G1 X107.769 Y95.529 E-.80847
G1 X108.937 Y94.659 E-.69153
;WIPE_END
G1 X109.893 Y99.976 F9000
G1 E5 F2400
;TYPE:Perimeter
;WIDTH:0.419999
G1 F1200
G1 X110.81 Y99.141 E.03889
G1 X111.807 Y98.404 E.03887
G1 X112.879 Y97.768 E.03908
G1 X113.616 Y97.412 E.02566
G1 X114.383 Y97.104 E.02592
G1 X115.161 Y96.851 E.02565
G1 X116.385 Y96.566 E.0394
G1 X117.078 Y96.463 E.02197
G1 X117.594 Y96.411 E.01626
G1 X118.727 Y96.378 E.03554
G1 X119.664 Y96.427 E.02942
G1 X120.895 Y96.606 E.039
G1 X122.097 Y96.909 E.03887
G1 X123.262 Y97.331 E.03885
G1 X124.377 Y97.87 E.03883
G1 X125.432 Y98.52 E.03885
G1 X126.416 Y99.274 E.03887
G1 X127.324 Y100.129 E.0391
G1 X127.87 Y100.739 E.02567
G1 X128.378 Y101.39 E.02589
G1 X128.84 Y102.075 E.02591
G1 X129.256 Y102.789 E.02591
G1 X129.621 Y103.53 E.0259
G1 X129.936 Y104.294 E.02591
G1 X130.195 Y105.071 E.02568
G1 X130.489 Y106.283 E.0391
G1 X130.665 Y107.749 E.0463
G1 X130.699 Y108.749 E.03137
G1 X130.615 Y109.985 E.03884
G1 X130.405 Y111.207 E.03888
G1 X130.073 Y112.4 E.03883
G1 X129.618 Y113.561 E.0391
G1 X129.259 Y114.288 E.02542
G1 X128.609 Y115.363 E.03939
G1 X128.199 Y115.932 E.02199
G1 X127.872 Y116.344 E.01649
G1 X127.397 Y116.876 E.02236
G1 X127.036 Y117.246 E.01621
G1 X126.095 Y118.074 E.0393
G1 X125.185 Y118.729 E.03515
G1 X124.381 Y119.212 E.02941
G1 X123.254 Y119.757 E.03925
G1 X122.497 Y120.046 E.02541
G1 X121.291 Y120.393 E.03935
G1 X120.488 Y120.552 E.02567
G1 X119.676 Y120.656 E.02567
G1 X118.43 Y120.709 E.0391
G1 X117.192 Y120.635 E.03889
G1 X116.085 Y120.459 E.03515
G1 X115.174 Y120.236 E.02941
G1 X113.997 Y119.832 E.03902
G1 X112.865 Y119.308 E.03911
G1 X112.154 Y118.903 E.02566
G1 X111.466 Y118.447 E.02588
G1 X110.81 Y117.944 E.02592
G1 X110.195 Y117.403 E.02568
G1 X109.327 Y116.497 E.03934
G1 X108.813 Y115.86 E.02566
G1 X108.338 Y115.184 E.0259
G1 X107.915 Y114.483 E.02567
G1 X107.363 Y113.365 E.03909
G1 X106.928 Y112.196 E.03911
G1 X106.71 Y111.415 E.02542
G1 X106.479 Y110.188 E.03915
G1 X106.379 Y109.063 E.03541
G1 X106.366 Y108.555 E.01593
G1 X106.43 Y107.303 E.03931
G1 X106.597 Y106.194 E.03516
G1 X106.812 Y105.281 E.02941
G1 X107.206 Y104.102 E.03898
G1 X107.72 Y102.965 E.03912
G1 X108.116 Y102.256 E.02546
G1 X108.749 Y101.311 E.03566
G1 X109.059 Y100.908 E.01594
G1 X109.853 Y100.021 E.03733
G1 X109.625 Y99.71 F9000
G1 F1200
G1 X110.571 Y98.849 E.04011
G1 X111.598 Y98.089 E.04006
G1 X112.701 Y97.436 E.04019
G1 X113.464 Y97.067 E.02657
G1 X114.254 Y96.75 E.02669
G1 X115.06 Y96.488 E.02657
G1 X116.314 Y96.195 E.04038
G1 X117.032 Y96.089 E.02276
G1 X117.57 Y96.034 E.01696
G1 X118.732 Y96 E.03645
G1 X119.701 Y96.052 E.03043
G1 X120.968 Y96.236 E.04014
G1 X122.207 Y96.548 E.04006
G1 X123.408 Y96.983 E.04005
G1 X124.559 Y97.539 E.04008
G1 X125.647 Y98.209 E.04006
G1 X126.661 Y98.986 E.04005
G1 X127.594 Y99.865 E.04019
G1 X128.159 Y100.497 E.02658
G1 X128.683 Y101.168 E.02669
G1 X129.16 Y101.874 E.02671
G1 X129.588 Y102.611 E.02672
G1 X129.965 Y103.375 E.02671
G1 X130.289 Y104.163 E.02671
G1 X130.558 Y104.966 E.02655
G1 X130.86 Y106.213 E.04023
G1 X130.998 Y107.223 E.03196
G1 X131.042 Y107.736 E.01614
G1 X131.077 Y108.755 E.03197
G1 X130.99 Y110.03 E.04007
G1 X130.774 Y111.289 E.04005
G1 X130.431 Y112.52 E.04007
G1 X129.963 Y113.714 E.04021
G1 X129.59 Y114.469 E.0264
G1 X128.924 Y115.572 E.0404
G1 X128.5 Y116.159 E.0227
G1 X128.16 Y116.586 E.01711
G1 X127.673 Y117.134 E.02299
G1 X127.296 Y117.52 E.01692
G1 X126.33 Y118.37 E.04034
G1 X125.393 Y119.044 E.03619
G1 X124.561 Y119.544 E.03044
G1 X123.404 Y120.103 E.04029
G1 X122.617 Y120.404 E.02642
G1 X121.38 Y120.76 E.04036
G1 X120.549 Y120.924 E.02656
G1 X119.708 Y121.032 E.02659
G1 X118.427 Y121.086 E.0402
G1 X117.151 Y121.01 E.04008
G1 X116.01 Y120.829 E.03622
G1 X115.067 Y120.598 E.03044
G1 X113.856 Y120.182 E.04015
G1 X112.692 Y119.644 E.04021
G1 X111.956 Y119.224 E.02657
G1 X111.247 Y118.754 E.02667
G1 X110.57 Y118.235 E.02675
G1 X109.934 Y117.676 E.02655
G1 X109.043 Y116.746 E.04038
G1 X108.511 Y116.087 E.02656
G1 X108.022 Y115.39 E.0267
G1 X107.584 Y114.664 E.02658
G1 X107.017 Y113.514 E.0402
G1 X106.569 Y112.313 E.04019
G1 X106.343 Y111.501 E.02643
G1 X106.105 Y110.24 E.04024
G1 X106.002 Y109.084 E.03639
G1 X105.989 Y108.55 E.01675
G1 X106.054 Y107.265 E.04034
G1 X106.226 Y106.123 E.03621
G1 X106.448 Y105.178 E.03044
G1 X106.855 Y103.964 E.04015
G1 X107.383 Y102.795 E.04022
G1 X107.794 Y102.059 E.02643
G1 X108.443 Y101.091 E.03654
G1 X108.769 Y100.667 E.01677
G1 X109.585 Y99.755 E.03837
G1 X109.357 Y99.445 F9000
;TYPE:External perimeter
G1 F1200
G1 X110.331 Y98.557 E.04133
G1 X111.389 Y97.775 E.04125
G1 X112.522 Y97.103 E.0413
G1 X113.311 Y96.722 E.02747
G1 X114.125 Y96.395 E.0275
G1 X114.959 Y96.124 E.0275
G1 X116.244 Y95.824 E.04137
G1 X116.985 Y95.715 E.02348
G1 X117.545 Y95.658 E.01765
G1 X118.736 Y95.623 E.03736
G1 X119.738 Y95.676 E.03146
G1 X121.041 Y95.866 E.04129
G1 X122.318 Y96.187 E.04128
G1 X123.555 Y96.635 E.04125
G1 X124.74 Y97.208 E.04127
G1 X125.861 Y97.898 E.04127
G1 X126.905 Y98.698 E.04124
G1 X127.864 Y99.602 E.04132
G1 X128.449 Y100.255 E.02749
G1 X128.988 Y100.946 E.02748
G1 X129.48 Y101.674 E.02755
G1 X129.921 Y102.433 E.02752
G1 X130.309 Y103.219 E.02748
G1 X130.643 Y104.031 E.02753
G1 X130.921 Y104.862 E.02747
G1 X131.231 Y106.143 E.04132
G1 X131.372 Y107.172 E.03257
G1 X131.419 Y107.723 E.01734
G1 X131.454 Y108.762 E.0326
G1 X131.365 Y110.075 E.04126
G1 X131.142 Y111.372 E.04126
G1 X130.789 Y112.64 E.04127
G1 X130.308 Y113.866 E.04129
G1 X129.921 Y114.651 E.02744
G1 X129.239 Y115.78 E.04136
G1 X128.8 Y116.387 E.02349
G1 X128.449 Y116.829 E.0177
G1 X127.949 Y117.391 E.02359
G1 X127.556 Y117.794 E.01765
G1 X126.566 Y118.665 E.04134
G1 X125.6 Y119.359 E.03729
G1 X124.74 Y119.876 E.03146
G1 X123.553 Y120.45 E.04134
G1 X122.736 Y120.762 E.02742
G1 X121.469 Y121.127 E.04134
G1 X120.61 Y121.297 E.02746
G1 X119.74 Y121.408 E.0275
G1 X118.424 Y121.464 E.0413
G1 X117.11 Y121.386 E.04127
G1 X115.936 Y121.199 E.03727
G1 X114.961 Y120.961 E.03147
G1 X113.715 Y120.532 E.04132
G1 X112.52 Y119.98 E.04127
G1 X111.758 Y119.546 E.0275
G1 X111.027 Y119.061 E.02751
G1 X110.331 Y118.527 E.02751
G1 X109.673 Y117.948 E.02748
G1 X108.76 Y116.996 E.04136
G1 X108.21 Y116.314 E.02747
G1 X107.706 Y115.595 E.02753
G1 X107.253 Y114.845 E.02747
G1 X106.67 Y113.664 E.0413
G1 X106.21 Y112.429 E.04132
G1 X105.975 Y111.587 E.02741
G1 X105.731 Y110.292 E.04132
G1 X105.625 Y109.106 E.03733
G1 X105.611 Y108.545 E.0176
G1 X105.679 Y107.227 E.04138
G1 X105.855 Y106.052 E.03725
G1 X106.085 Y105.075 E.03147
G1 X106.503 Y103.826 E.0413
G1 X107.046 Y102.625 E.04133
G1 X107.472 Y101.862 E.0274
G1 X108.137 Y100.871 E.03742
G1 X108.478 Y100.426 E.01758
G1 X109.317 Y99.489 E.03944
G1 X109.743 Y99.55 F9000
G1 E-3.5 F3600
;WIPE_START
G1 F7200
G1 X110.331 Y98.557 E-.65419
G1 X111.389 Y97.775 E-.62493
G1 X111.789 Y97.538 E-.22088
;WIPE_END
G1 X116.548 Y106.567 F9000
G1 E5 F2400
;TYPE:Perimeter
G1 F1200
G1 X116.831 Y106.305 E.01209
G1 X117.285 Y106.023 E.01676
G1 X117.784 Y105.832 E.01675
G1 X118.311 Y105.74 E.01677
G1 X118.845 Y105.748 E.01675
G1 X119.368 Y105.857 E.01675
G1 X119.861 Y106.064 E.01676
G1 X120.306 Y106.36 E.01676
G1 X120.687 Y106.735 E.01676
G1 X120.99 Y107.175 E.01675
G1 X121.205 Y107.664 E.01675
G1 X121.323 Y108.186 E.01678
G1 X121.34 Y108.72 E.01675
G1 X121.258 Y109.237 E.01641
G1 X121.061 Y109.735 E.01679
G1 X120.849 Y110.137 E.01425
G1 X120.511 Y110.541 E.01652
G1 X120.122 Y110.865 E.01587
G1 X119.662 Y111.12 E.01649
G1 X119.179 Y111.282 E.01597
G1 X118.663 Y111.354 E.01634
G1 X118.119 Y111.326 E.01708
G1 X117.615 Y111.202 E.01627
G1 X117.131 Y110.982 E.01667
G1 X116.716 Y110.69 E.01591
G1 X116.354 Y110.321 E.01621
G1 X116.063 Y109.887 E.01638
G1 X115.863 Y109.42 E.01593
G1 X115.745 Y108.898 E.01678
G1 X115.728 Y108.616 E.00886
G1 X115.754 Y108.143 E.01485
G1 X115.88 Y107.624 E.01675
G1 X116.121 Y107.098 E.01814
G1 X116.438 Y106.668 E.01675
G1 X116.504 Y106.607 E.00282
G1 X116.811 Y106.824 F9000
G1 F1200
G1 X117.165 Y106.528 E.01447
G1 X117.634 Y106.284 E.01658
G1 X118.012 Y106.163 E.01244
G1 X118.472 Y106.108 E.01453
G1 X118.933 Y106.14 E.01449
G1 X119.381 Y106.259 E.01453
G1 X119.845 Y106.495 E.01632
G1 X120.169 Y106.737 E.01268
G1 X120.481 Y107.079 E.01451
G1 X120.722 Y107.474 E.01451
G1 X120.885 Y107.908 E.01454
G1 X120.963 Y108.364 E.01451
G1 X120.952 Y108.826 E.01449
G1 X120.847 Y109.293 E.01501
G1 X120.624 Y109.787 E.01699
G1 X120.311 Y110.21 E.0165
G1 X119.921 Y110.545 E.01612
G1 X119.496 Y110.779 E.01521
G1 X119.017 Y110.926 E.01571
G1 X118.596 Y110.977 E.0133
G1 X118.134 Y110.944 E.01452
G1 X117.687 Y110.825 E.0145
G1 X117.27 Y110.624 E.01451
G1 X116.899 Y110.347 E.01452
G1 X116.516 Y109.894 E.0186
G1 X116.345 Y109.61 E.01039
G1 X116.183 Y109.177 E.0145
G1 X116.105 Y108.616 E.01776
G1 X116.121 Y108.232 E.01205
G1 X116.246 Y107.713 E.01674
G1 X116.465 Y107.254 E.01595
G1 X116.768 Y106.865 E.01546
G1 X117.056 Y107.108 F9000
;TYPE:External perimeter
G1 F1200
G1 X117.354 Y106.854 E.01228
G1 X117.757 Y106.64 E.01431
G1 X118.066 Y106.537 E.01021
G1 X118.454 Y106.484 E.01228
G1 X118.845 Y106.506 E.01228
G1 X119.224 Y106.602 E.01226
G1 X119.627 Y106.802 E.01411
G1 X120.038 Y107.147 E.01682
G1 X120.356 Y107.583 E.01692
G1 X120.515 Y107.979 E.01338
G1 X120.585 Y108.364 E.01227
G1 X120.582 Y108.756 E.01229
G1 X120.504 Y109.138 E.01222
G1 X120.28 Y109.632 E.01701
G1 X120.012 Y109.976 E.01367
G1 X119.714 Y110.23 E.01228
G1 X119.235 Y110.471 E.01681
G1 X118.963 Y110.553 E.00891
G1 X118.614 Y110.6 E.01104
G1 X118.223 Y110.578 E.01228
G1 X117.843 Y110.482 E.01229
G1 X117.338 Y110.209 E.018
G1 X116.926 Y109.829 E.01757
G1 X116.695 Y109.47 E.01339
G1 X116.553 Y109.105 E.01228
G1 X116.482 Y108.616 E.01549
G1 X116.487 Y108.32 E.00928
G1 X116.613 Y107.802 E.01672
G1 X116.822 Y107.399 E.01423
G1 X117.018 Y107.155 E.00981
G1 X116.947 Y106.732 F9000
G1 E-3.5 F3600
;WIPE_START
G1 F7200
G1 X117.354 Y106.854 E-.21428
G1 X117.757 Y106.64 E-.21674
G1 X118.066 Y106.537 E-.15471
G1 X118.454 Y106.484 E-.18601
G1 X118.845 Y106.506 E-.18602
G1 X119.224 Y106.602 E-.18571
G1 X119.627 Y106.802 E-.2137
G1 X119.857 Y106.995 E-.14283
;WIPE_END
G1 X128.361 Y101.581 F9000
G1 E5 F2400
;TYPE:Solid infill
;WIDTH:0.425817
G1 F1200
G1 X127.047 Y100.267 E.05916
G1 X126.228 Y99.495 E.03583
G1 X125.268 Y98.759 E.03851
G1 X124.566 Y98.327 E.02624
G1 X128.77 Y102.532 E.18931
G1 X129 Y102.927 E.01455
G1 X129.363 Y103.667 E.02624
G1 X123.434 Y97.737 E.26698
G1 X123.149 Y97.599 E.01008
G1 X122.53 Y97.375 E.02096
G1 X129.72 Y104.565 E.32374
G1 X129.916 Y105.151 E.01967
G1 X129.965 Y105.351 E.00656
G1 X121.729 Y97.116 E.37081
G1 X121.006 Y96.934 E.02374
G1 X130.138 Y106.065 E.41115
G1 X130.203 Y106.337 E.0089
G1 X130.257 Y106.726 E.0125
G1 X120.352 Y96.821 E.44598
G1 X119.718 Y96.729 E.0204
