; generated by PrusaSlicer 2.5.1+win64 on 2024-02-08 at 19:21:50 UTC

; 

; external perimeters extrusion width = 0.42mm
; perimeters extrusion width = 0.44mm
; infill extrusion width = 0.44mm
; solid infill extrusion width = 0.44mm
; top infill extrusion width = 0.40mm
; first layer extrusion width = 0.42mm

; external perimeters extrusion width = 0.42mm
; perimeters extrusion width = 0.44mm
; infill extrusion width = 0.44mm
; solid infill extrusion width = 0.44mm
; top infill extrusion width = 0.40mm
; first layer extrusion width = 0.42mm

M201 X500 Y500 Z100 E5000 ; sets maximum accelerations, mm/sec^2
M203 X500 Y500 Z10 E60 ; sets maximum feedrates, mm / sec
M204 P500 R1000 T500 ; sets acceleration (P, T) and retract acceleration (R), mm/sec^2
M205 X8.00 Y8.00 Z0.40 E5.00 ; sets the jerk limits, mm/sec
M205 S0 T0 ; sets the minimum extruding and travel feed rate, mm/sec
M107
;TYPE:Custom
G90 ; use absolute coordinates
M83 ; extruder relative mode
M104 S150 ; set temporary nozzle temp to prevent oozing during homing
M140 S60 ; set final bed temp
G4 S30 ; allow partial nozzle warmup
G28 ; home all axis and restore leveling
G1 Z50 F240
G1 X2.0 Y10 F3000
M104 S215 ; set final nozzle temp
M190 S60 ; wait for bed temp to stabilize
M109 S215 ; wait for nozzle temp to stabilize
G1 Z0.28 F240
G92 E0
G1 X2.0 Y140 E10 F1500 ; prime the nozzle
G1 X2.3 Y140 F5000
G92 E0
G1 X2.3 Y10 E10 F1200 ; prime the nozzle
G92 E0
G21 ; set units to millimeters
G90 ; use absolute coordinates
M83 ; use relative distances for extrusion
; Filament gcode
M107
;LAYER_CHANGE
;Z:0.2
;HEIGHT:0.2
;BEFORE_LAYER_CHANGE
G92 E0
;0.2


G1 E-.8 F1800
G1 Z.2 F9000
;AFTER_LAYER_CHANGE
;0.2
G1 X44.497 Y36.033
G1 E.8 F1800
M204 S500
;TYPE:Skirt/Brim
;WIDTH:0.42
G1 F1200
G1 X45.097 Y35.292 E.0299
G1 X48.469 Y31.947 E.14891
G1 X52.171 Y28.973 E.14891
G1 X56.164 Y26.401 E.14891
G1 X60.081 Y24.406 E.13784
G1 X64.845 Y22.577 E.15998
G1 X69.437 Y21.366 E.14891
G1 X74.131 Y20.641 E.14891
G1 X78.521 Y20.411 E.13784
G1 X82.972 Y20.626 E.13972
G1 X88.304 Y21.439 E.16912
G1 X92.886 Y22.686 E.14891
G1 X97.314 Y24.406 E.14891
G1 X101.537 Y26.578 E.14891
G1 X105.51 Y29.18 E.14891
G1 X109.189 Y32.183 E.14891
G1 X112.534 Y35.555 E.14891
G1 X115.376 Y39.068 E.14167
G1 X184.438 Y130.961 E3.60423
G1 X186.965 Y134.837 E.14509
G1 X189.138 Y139.06 E.14891
G1 X190.857 Y143.488 E.14891
G1 X192.104 Y148.07 E.14891
G1 X192.865 Y152.758 E.14891
G1 X193.08 Y156.505 E.11767
G1 X193.132 Y157.853 E.04232
G1 X192.865 Y162.595 E.14891
G1 X192.104 Y167.283 E.14891
G1 X190.857 Y171.865 E.14891
G1 X189.138 Y176.293 E.14891
G1 X186.965 Y180.516 E.14891
G1 X184.363 Y184.489 E.14891
G1 X181.36 Y188.168 E.14891
G1 X178.251 Y191.276 E.13784
G1 X174.572 Y194.28 E.14891
G1 X170.599 Y196.882 E.14891
G1 X166.376 Y199.054 E.14891
G1 X161.612 Y200.883 E.15998
G1 X157.366 Y202.021 E.13784
G1 X153.662 Y202.626 E.11767
G1 X152.327 Y202.819 E.04232
G1 X147.936 Y203.049 E.13784
G1 X142.841 Y202.782 E.15998
G1 X138.153 Y202.021 E.14891
G1 X133.907 Y200.883 E.13784
G1 X129.466 Y199.198 E.14891
G1 X124.92 Y196.882 E.15998
G1 X120.947 Y194.28 E.14891
G1 X117.531 Y191.513 E.13784
G1 X114.16 Y188.168 E.14891
G1 X111.081 Y184.392 E.15274
G1 X42.019 Y92.499 E3.60423
G1 X39.492 Y88.623 E.14509
G1 X37.32 Y84.4 E.14891
G1 X35.491 Y79.636 E.15998
G1 X34.28 Y75.044 E.14891
G1 X33.54 Y70.058 E.15806
G1 X33.325 Y65.607 E.13972
G1 X33.555 Y61.217 E.13784
G1 X34.353 Y56.177 E.15998
G1 X35.6 Y51.595 E.14891
G1 X37.176 Y47.49 E.13784
G1 X39.315 Y43.25 E.14891
G1 X41.886 Y39.257 E.14891
G1 X44.46 Y36.08 E.12819
; printing object Roue_pami_V4.stl id:0 copy 0
;WIPE_START
G1 F7200
G1 X45.097 Y35.292 E-.24074
G1 X46.649 Y33.752 E-.51926
;WIPE_END
G1 E-.04 F1800
G1 X48.277 Y38.393 F9000
G1 E.8 F1800
;TYPE:Perimeter
;WIDTH:0.419999
G1 F1200
G1 X51.307 Y35.363 E.13434
G1 X54.637 Y32.667 E.13434
G1 X58.23 Y30.333 E.13434
G1 X62.048 Y28.388 E.13434
G1 X66.048 Y26.853 E.13434
G1 X70.187 Y25.744 E.13434
G1 X74.419 Y25.073 E.13434
G1 X78.697 Y24.849 E.13434
G1 X82.976 Y25.073 E.13434
G1 X87.208 Y25.744 E.13434
G1 X91.347 Y26.853 E.13434
G1 X95.347 Y28.388 E.13434
G1 X99.165 Y30.333 E.13434
G1 X102.758 Y32.667 E.13434
G1 X106.088 Y35.363 E.13434
G1 X109.118 Y38.393 E.13434
G1 X111.814 Y41.723 E.13434
G1 X114.148 Y45.316 E.13434
G1 X116.093 Y49.134 E.13434
G1 X117.628 Y53.134 E.13434
G1 X118.737 Y57.273 E.13434
G1 X119.408 Y61.505 E.13434
G1 X119.618 Y65.511 E.1258
G1 X119.618 Y66.056 E.01707
G1 X119.408 Y70.062 E.1258
G1 X118.737 Y74.294 E.13434
G1 X117.628 Y78.433 E.13434
G1 X116.093 Y82.433 E.13434
G1 X114.148 Y86.251 E.13434
G1 X111.814 Y89.844 E.13434
G1 X109.118 Y93.174 E.13434
G1 X106.088 Y96.204 E.13434
G1 X102.758 Y98.9 E.13434
G1 X99.165 Y101.234 E.13434
G1 X95.347 Y103.179 E.13434
G1 X91.347 Y104.714 E.13434
G1 X87.208 Y105.823 E.13434
G1 X82.976 Y106.494 E.13434
G1 X78.697 Y106.718 E.13434
G1 X74.419 Y106.494 E.13434
G1 X70.187 Y105.823 E.13434
G1 X66.048 Y104.714 E.13434
G1 X62.048 Y103.179 E.13434
G1 X58.23 Y101.234 E.13434
G1 X54.637 Y98.9 E.13434
G1 X51.307 Y96.204 E.13434
G1 X48.277 Y93.174 E.13434
G1 X45.581 Y89.844 E.13434
G1 X43.247 Y86.251 E.13434
G1 X41.302 Y82.433 E.13434
G1 X39.767 Y78.433 E.13434
G1 X38.658 Y74.294 E.13434
G1 X37.987 Y70.062 E.13434
G1 X37.763 Y65.783 E.13434
G1 X37.987 Y61.505 E.13434
G1 X38.658 Y57.273 E.13434
G1 X39.767 Y53.134 E.13434
G1 X41.302 Y49.134 E.13434
G1 X43.247 Y45.316 E.13434
G1 X45.581 Y41.723 E.13434
G1 X48.24 Y38.44 E.13246
G1 X47.997 Y38.14 F9000
G1 F1200
G1 X51.054 Y35.083 E.13558
G1 X54.415 Y32.361 E.13558
G1 X58.041 Y30.006 E.13558
G1 X61.894 Y28.043 E.13558
G1 X65.931 Y26.493 E.13558
G1 X70.108 Y25.374 E.13558
G1 X74.379 Y24.698 E.13558
G1 X78.697 Y24.472 E.13558
G1 X83.016 Y24.698 E.13558
G1 X87.287 Y25.374 E.13558
G1 X91.464 Y26.493 E.13558
G1 X95.501 Y28.043 E.13558
G1 X99.353 Y30.006 E.13558
G1 X102.98 Y32.361 E.13558
G1 X106.341 Y35.083 E.13558
G1 X109.398 Y38.14 E.13558
G1 X112.12 Y41.501 E.13558
G1 X114.475 Y45.127 E.13558
G1 X116.438 Y48.98 E.13558
G1 X117.987 Y53.017 E.13558
G1 X119.107 Y57.194 E.13558
G1 X119.783 Y61.465 E.13558
G1 X119.994 Y65.492 E.12642
G1 X119.994 Y66.075 E.0183
G1 X119.783 Y70.102 E.12642
G1 X119.107 Y74.373 E.13558
G1 X117.987 Y78.55 E.13558
G1 X116.438 Y82.587 E.13558
G1 X114.475 Y86.439 E.13558
G1 X112.12 Y90.066 E.13558
G1 X109.398 Y93.427 E.13558
G1 X106.341 Y96.484 E.13558
G1 X102.98 Y99.206 E.13558
G1 X99.353 Y101.561 E.13558
G1 X95.501 Y103.524 E.13558
G1 X91.464 Y105.074 E.13558
G1 X87.287 Y106.193 E.13558
G1 X83.016 Y106.869 E.13558
G1 X78.697 Y107.095 E.13558
G1 X74.379 Y106.869 E.13558
G1 X70.108 Y106.193 E.13558
G1 X65.931 Y105.074 E.13558
G1 X61.894 Y103.524 E.13558
G1 X58.041 Y101.561 E.13558
G1 X54.415 Y99.206 E.13558
G1 X51.054 Y96.484 E.13558
G1 X47.997 Y93.427 E.13558
G1 X45.275 Y90.066 E.13558
G1 X42.92 Y86.439 E.13558
G1 X40.957 Y82.587 E.13558
G1 X39.407 Y78.55 E.13558
G1 X38.288 Y74.373 E.13558
G1 X37.612 Y70.102 E.13558
G1 X37.385 Y65.783 E.13558
G1 X37.612 Y61.465 E.13558
G1 X38.288 Y57.194 E.13558
G1 X39.407 Y53.017 E.13558
G1 X40.957 Y48.98 E.13558
G1 X42.92 Y45.127 E.13558
G1 X45.275 Y41.501 E.13558
G1 X47.959 Y38.187 E.1337
G1 X47.716 Y37.888 F9000
;TYPE:External perimeter
G1 F1200
G1 X50.802 Y34.802 E.13682
G1 X54.193 Y32.056 E.13682
G1 X57.853 Y29.679 E.13682
G1 X61.741 Y27.698 E.13682
G1 X65.815 Y26.134 E.13682
G1 X70.03 Y25.005 E.13682
G1 X74.34 Y24.322 E.13682
G1 X78.697 Y24.094 E.13682
G1 X83.055 Y24.322 E.13682
G1 X87.365 Y25.005 E.13682
G1 X91.58 Y26.134 E.13682
G1 X95.654 Y27.698 E.13682
G1 X99.542 Y29.679 E.13682
G1 X103.202 Y32.056 E.13682
G1 X106.593 Y34.802 E.13682
G1 X109.679 Y37.888 E.13682
G1 X112.425 Y41.279 E.13682
G1 X114.802 Y44.939 E.13682
G1 X116.783 Y48.827 E.13682
G1 X118.347 Y52.901 E.13682
G1 X119.476 Y57.116 E.13682
G1 X120.159 Y61.426 E.13682
G1 X120.371 Y65.472 E.12704
G1 X120.371 Y66.095 E.01954
G1 X120.159 Y70.141 E.12704
G1 X119.476 Y74.451 E.13682
G1 X118.347 Y78.666 E.13682
G1 X116.783 Y82.74 E.13682
G1 X114.802 Y86.628 E.13682
G1 X112.425 Y90.288 E.13682
G1 X109.679 Y93.679 E.13682
G1 X106.593 Y96.765 E.13682
G1 X103.202 Y99.511 E.13682
G1 X99.542 Y101.888 E.13682
G1 X95.654 Y103.869 E.13682
G1 X91.58 Y105.433 E.13682
G1 X87.365 Y106.562 E.13682
G1 X83.055 Y107.245 E.13682
G1 X78.697 Y107.473 E.13682
G1 X74.34 Y107.245 E.13682
G1 X70.03 Y106.562 E.13682
G1 X65.815 Y105.433 E.13682
G1 X61.741 Y103.869 E.13682
G1 X57.853 Y101.888 E.13682
G1 X54.193 Y99.511 E.13682
G1 X50.802 Y96.765 E.13682
G1 X47.716 Y93.679 E.13682
G1 X44.97 Y90.288 E.13682
G1 X42.593 Y86.628 E.13682
G1 X40.612 Y82.74 E.13682
G1 X39.048 Y78.666 E.13682
G1 X37.919 Y74.451 E.13682
G1 X37.236 Y70.141 E.13682
G1 X37.008 Y65.783 E.13682
G1 X37.236 Y61.426 E.13682
G1 X37.919 Y57.116 E.13682
G1 X39.048 Y52.901 E.13682
G1 X40.612 Y48.827 E.13682
G1 X42.593 Y44.939 E.13682
G1 X44.97 Y41.279 E.13682
G1 X47.678 Y37.934 E.13494
G1 X48.107 Y37.971 F9000
;WIPE_START
G1 F7200
G1 X49.938 Y35.668 E-.76
;WIPE_END
G1 E-.04 F1800
G1 X80.615 Y96.783 F9000
G1 E.8 F1800
;TYPE:Perimeter
G1 F1200
G1 X80.466 Y96.779 E.0047
G1 X80.184 Y96.681 E.00936
G1 X80.001 Y96.553 E.007
G1 X79.874 Y96.413 E.00592
G1 X79.747 Y96.179 E.00834
G1 X79.688 Y95.851 E.01045
G1 X79.688 Y70.272 E.80201
;WIDTH:0.42023
G1 X79.88 Y69.702 E.01888
;WIDTH:0.432531
G1 X80.151 Y69.453 E.01192
G1 X81.01 Y68.952 E.03222
;WIDTH:0.429333
G1 X81.488 Y68.531 E.02047
;WIDTH:0.43272
G1 X81.652 Y68.362 E.00763
G1 X82.173 Y67.631 E.02908
;WIDTH:0.427504
G1 X82.454 Y67.335 E.01306
;WIDTH:0.419999
G1 X82.997 Y67.163 E.01787
G1 X108.738 Y67.163 E.80708
G1 X109.014 Y67.204 E.00875
G1 X109.375 Y67.411 E.01307
G1 X109.592 Y67.707 E.01149
G1 X109.673 Y67.991 E.00928
G1 X109.679 Y68.155 E.00513
G1 X109.13 Y72.007 E.12201
G1 X108.216 Y75.455 E.11183
G1 X106.868 Y78.871 E.11516
G1 X105.066 Y82.202 E.11873
G1 X103.012 Y85.115 E.11175
G1 X100.559 Y87.851 E.11524
G1 X97.799 Y90.279 E.11524
G1 X94.813 Y92.335 E.11366
G1 X91.418 Y94.122 E.1203
G1 X88.084 Y95.394 E.1119
G1 X84.525 Y96.295 E.11509
G1 X80.675 Y96.784 E.12168
G1 X80.616 Y96.402 F9000
G1 F1200
G1 X80.428 Y96.379 E.00596
G1 X80.253 Y96.272 E.00642
G1 X80.1 Y96.048 E.0085
G1 X80.065 Y95.851 E.00627
G1 X80.065 Y70.272 E.80201
G1 X80.18 Y69.93 E.01132
G1 X80.372 Y69.768 E.00787
G1 X81.256 Y69.251 E.03212
G1 X81.929 Y68.634 E.02862
G1 X82.536 Y67.778 E.03289
G1 X82.671 Y67.643 E.006
G1 X82.997 Y67.54 E.01072
G1 X108.738 Y67.54 E.80708
G1 X109.033 Y67.623 E.00962
G1 X109.234 Y67.835 E.00917
G1 X109.303 Y68.135 E.00965
G1 X108.766 Y71.911 E.11957
G1 X107.852 Y75.357 E.1118
G1 X106.518 Y78.732 E.1138
G1 X104.758 Y81.985 E.11594
G1 X102.704 Y84.897 E.11175
G1 X100.278 Y87.599 E.11384
G1 X97.55 Y89.995 E.11385
G1 X94.6 Y92.024 E.11227
G1 X91.284 Y93.77 E.11751
G1 X87.951 Y95.041 E.11184
G1 X84.433 Y95.929 E.11376
G1 X80.676 Y96.409 E.11877
G1 X80.655 Y96.038 F9000
;TYPE:External perimeter
G1 F1200
G1 X80.505 Y95.991 E.00492
G1 X80.442 Y95.851 E.00482
G1 X80.442 Y70.272 E.80201
G1 X80.535 Y70.109 E.00588
G1 X81.481 Y69.556 E.03436
G1 X82.213 Y68.885 E.03114
G1 X82.843 Y67.996 E.03415
G1 X82.997 Y67.917 E.00543
G1 X108.738 Y67.917 E.80708
G1 X108.884 Y67.986 E.00507
G1 X108.926 Y68.115 E.00426
G1 X108.401 Y71.814 E.11713
G1 X107.488 Y75.26 E.11177
G1 X106.167 Y78.593 E.11243
G1 X104.45 Y81.767 E.11315
G1 X102.396 Y84.68 E.11175
G1 X99.998 Y87.347 E.11245
G1 X97.302 Y89.712 E.11245
G1 X96.616 Y90.184 E.02611
G1 X94.387 Y91.713 E.08476
G1 X91.168 Y93.409 E.11408
G1 X87.819 Y94.688 E.11241
G1 X84.341 Y95.563 E.11242
G1 X80.714 Y96.03 E.11467
G1 X80.558 Y96.162 F9000
;WIPE_START
G1 F7200
G1 X80.505 Y95.991 E-.05061
G1 X80.442 Y95.851 E-.03649
G1 X80.442 Y93.018 E-.6729
;WIPE_END
G1 E-.04 F1800
G1 X109.662 Y63.481 F9000
G1 E.8 F1800
;TYPE:Perimeter
G1 F1200
G1 X109.649 Y63.702 E.00696
G1 X109.527 Y63.977 E.00942
G1 X109.375 Y64.156 E.00735
G1 X109.014 Y64.363 E.01307
G1 X108.738 Y64.404 E.00875
G1 X82.997 Y64.404 E.80708
;WIDTH:0.421652
G1 X82.453 Y64.233 E.01796
;WIDTH:0.428758
G1 X82.224 Y64.009 E.01026
;WIDTH:0.43272
G1 X81.652 Y63.205 E.032
G1 X81.142 Y62.72 E.02279
;WIDTH:0.429332
G1 X81.028 Y62.625 E.00478
;WIDTH:0.43222
G1 X80.178 Y62.129 E.03184
G1 X79.88 Y61.865 E.0129
;WIDTH:0.419999
G1 X79.688 Y61.295 E.01887
G1 X79.688 Y35.716 E.80201
G1 X79.747 Y35.388 E.01045
G1 X79.874 Y35.154 E.00834
G1 X80.104 Y34.934 E.00999
G1 X80.33 Y34.822 E.00789
G1 X80.68 Y34.774 E.01108
G1 X84.416 Y35.252 E.11808
G1 X84.973 Y35.385 E.01798
G1 X88.088 Y36.174 E.10075
G1 X91.42 Y37.446 E.11181
G1 X94.676 Y39.146 E.11518
G1 X97.711 Y41.22 E.11524
G1 X100.559 Y43.716 E.11873
G1 X103.012 Y46.452 E.11524
G1 X105.066 Y49.365 E.11175
G1 X106.821 Y52.594 E.11524
G1 X108.182 Y56.009 E.11524
G1 X109.131 Y59.561 E.11527
G1 X109.671 Y63.329 E.11937
G1 X109.666 Y63.421 E.00288
G1 X109.287 Y63.471 F9000
G1 F1200
G1 X109.261 Y63.675 E.00646
G1 X109.12 Y63.878 E.00774
G1 X108.903 Y64.002 E.00784
G1 X108.738 Y64.027 E.00525
G1 X82.997 Y64.027 E.80708
G1 X82.671 Y63.924 E.01072
G1 X82.484 Y63.715 E.00879
G1 X81.929 Y62.933 E.03007
G1 X81.256 Y62.316 E.02862
G1 X80.345 Y61.783 E.0331
G1 X80.18 Y61.637 E.0069
G1 X80.065 Y61.259 E.0124
G1 X80.065 Y35.716 E.80088
G1 X80.1 Y35.519 E.00627
G1 X80.253 Y35.295 E.0085
G1 X80.45 Y35.18 E.00716
G1 X80.703 Y35.155 E.00796
G1 X84.368 Y35.626 E.11585
G1 X87.89 Y36.506 E.11385
G1 X91.285 Y37.798 E.11388
G1 X94.559 Y39.514 E.1159
G1 X97.498 Y41.531 E.11175
G1 X100.231 Y43.921 E.11385
G1 X102.704 Y46.67 E.11594
G1 X104.758 Y49.582 E.11175
G1 X106.49 Y52.774 E.11384
G1 X107.832 Y56.148 E.11385
G1 X108.766 Y59.657 E.11386
G1 X109.294 Y63.411 E.11887
G1 X108.924 Y63.435 F9000
;TYPE:External perimeter
G1 F1200
G1 X108.884 Y63.581 E.00474
G1 X108.738 Y63.65 E.00507
G1 X82.997 Y63.65 E.80708
G1 X82.843 Y63.571 E.00543
G1 X82.213 Y62.682 E.03415
G1 X81.481 Y62.011 E.03114
G1 X80.535 Y61.457 E.03436
G1 X80.442 Y61.295 E.00588
G1 X80.442 Y35.716 E.80201
G1 X80.505 Y35.576 E.00482
G1 X80.655 Y35.529 E.00492
G1 X84.32 Y36 E.11585
G1 X87.801 Y36.873 E.11254
G1 X91.15 Y38.15 E.11237
G1 X94.345 Y39.825 E.11314
G1 X97.284 Y41.842 E.11175
G1 X99.982 Y44.205 E.11245
G1 X102.396 Y46.887 E.11315
G1 X104.45 Y49.8 E.11175
G1 X106.158 Y52.953 E.11245
G1 X107.482 Y56.289 E.11251
G1 X108.401 Y59.753 E.11239
G1 X108.916 Y63.376 E.11472
G1 X109.046 Y63.525 F9000
;WIPE_START
G1 F7200
G1 X108.884 Y63.581 E-.04931
G1 X108.738 Y63.65 E-.03839
G1 X105.907 Y63.65 E-.6723
;WIPE_END
G1 E-.04 F1800
G1 X82.235 Y65.934 F9000
G1 E.8 F1800
;TYPE:Perimeter
G1 F1200
G1 X82.017 Y67.047 E.03557
;WIDTH:0.427464
G1 X81.867 Y67.398 E.01222
;WIDTH:0.43272
G1 X81.335 Y68.135 E.02944
G1 X80.958 Y68.524 E.01757
;WIDTH:0.432221
G1 X79.983 Y69.101 E.03668
G1 X79.781 Y69.187 E.0071
;WIDTH:0.430177
G1 X78.63 Y69.319 E.03732
;WIDTH:0.419999
G1 X78.355 Y69.333 E.00863
G1 X77.42 Y69.058 E.03055
;WIDTH:0.419805
G1 X76.914 Y68.862 E.01702
;WIDTH:0.43222
G1 X76.614 Y68.638 E.01209
G1 X76.028 Y68.108 E.02558
;WIDTH:0.428739
G1 X75.813 Y67.866 E.01041
;WIDTH:0.419999
G1 X75.55 Y67.342 E.01838
G1 X75.269 Y66.713 E.02161
G1 X75.188 Y66.329 E.01229
G1 X75.188 Y65.238 E.03421
G1 X75.269 Y64.854 E.01229
G1 X75.727 Y63.839 E.03492
;WIDTH:0.428739
G1 X76.028 Y63.458 E.01557
;WIDTH:0.43222
G1 X76.614 Y62.928 E.02558
G1 X76.914 Y62.705 E.01209
;WIDTH:0.419298
G1 X77.42 Y62.509 E.017
;WIDTH:0.419999
G1 X78.132 Y62.277 E.02347
G1 X78.522 Y62.236 E.01229
G1 X79.607 Y62.35 E.03421
;WIDTH:0.43222
G1 X79.983 Y62.466 E.01273
G1 X80.816 Y62.949 E.03117
;WIDTH:0.429332
G1 X81.197 Y63.262 E.01584
;WIDTH:0.427505
G1 X81.86 Y64.16 E.0357
;WIDTH:0.428013
G1 X81.976 Y64.371 E.00771
G1 X82.201 Y65.387 E.03333
;WIDTH:0.419999
G1 X82.264 Y65.783 E.01259
G1 X82.246 Y65.875 E.00291
G1 X81.875 Y65.825 F9000
G1 F1200
G1 X81.875 Y65.901 E.00237
G1 X81.648 Y66.968 E.03421
G1 X81.552 Y67.183 E.00737
G1 X80.911 Y68.066 E.03421
G1 X80.736 Y68.223 E.00737
G1 X79.791 Y68.769 E.03421
G1 X79.567 Y68.842 E.00737
G1 X78.482 Y68.956 E.03421
G1 X78.248 Y68.931 E.00737
G1 X77.211 Y68.594 E.03421
G1 X77.007 Y68.476 E.00737
