; generated by PrusaSlicer 2.6.1+win64 on 2024-04-06 at 12:15:11 UTC

; 

; external perimeters extrusion width = 0.42mm
; perimeters extrusion width = 0.44mm
; infill extrusion width = 0.44mm
; solid infill extrusion width = 0.44mm
; top infill extrusion width = 0.40mm
; support material extrusion width = 0.36mm
; first layer extrusion width = 0.42mm

M201 X500 Y500 Z100 E5000 ; sets maximum accelerations, mm/sec^2
M203 X500 Y500 Z10 E60 ; sets maximum feedrates, mm / sec
M204 S500 T1000 ; sets acceleration (S) and retract acceleration (R), mm/sec^2
M205 X8.00 Y8.00 Z0.40 E5.00 ; sets the jerk limits, mm/sec
M205 S0 T0 ; sets the minimum extruding and travel feed rate, mm/sec
;TYPE:Custom
G90 ; use absolute coordinates
M83 ; extruder relative mode
M104 S150 ; set temporary nozzle temp to prevent oozing during homing
M140 S60 ; set final bed temp
G4 S30 ; allow partial nozzle warmup
G28 ; home all axis
G1 Z50 F240
G1 X2.0 Y10 F3000
M104 S215 ; set final nozzle temp
M190 S60 ; wait for bed temp to stabilize
M109 S215 ; wait for nozzle temp to stabilize
G1 Z0.28 F240
G92 E0
G1 X2.0 Y140 E10 F1500 ; prime the nozzle
G1 X2.3 Y140 F5000
G92 E0
G1 X2.3 Y10 E10 F1200 ; prime the nozzle
G92 E0
G21 ; set units to millimeters
G90 ; use absolute coordinates
M83 ; use relative distances for extrusion
; Filament gcode
M107
;LAYER_CHANGE
;Z:0.2
;HEIGHT:0.2
;BEFORE_LAYER_CHANGE
G92 E0
;0.2


G1 E-5 F3600
G1 Z.2 F9000
;AFTER_LAYER_CHANGE
;0.2
G1 X78.214 Y93.099
G1 E5 F2400
M204 S500
;TYPE:Skirt/Brim
;WIDTH:0.42
G1 F1200
G1 X80.135 Y91.648 E.07548
G1 X82.053 Y90.469 E.07059
G1 X84.968 Y89.1 E.10098
G1 X87.251 Y88.335 E.07549
G1 X89.463 Y87.824 E.07118
G1 X92.643 Y87.456 E.10037
G1 X139.925 Y87.426 E1.48249
G1 X142.018 Y87.523 E.06569
G1 X144.249 Y87.827 E.0706
G1 X145.504 Y88.091 E.04021
G1 X147.667 Y88.714 E.07058
G1 X149.621 Y89.472 E.06571
G1 X151.64 Y90.469 E.0706
G1 X153.558 Y91.648 E.07059
G1 X154.614 Y92.409 E.04081
G1 X156.326 Y93.841 E.06998
G1 X157.913 Y95.438 E.07059
G1 X159.346 Y97.175 E.0706
G1 X160.531 Y98.904 E.06572
G1 X161.189 Y100.026 E.04078
G1 X162.177 Y102.028 E.07
G1 X162.934 Y103.982 E.0657
G1 X163.557 Y106.145 E.07058
G1 X163.822 Y107.4 E.04022
G1 X164.126 Y109.631 E.0706
G1 X164.223 Y111.724 E.06569
G1 X164.126 Y113.974 E.07061
G1 X163.978 Y115.247 E.04018
G1 X163.557 Y117.459 E.0706
G1 X162.934 Y119.623 E.07061
G1 X162.114 Y121.72 E.0706
G1 X161.18 Y123.596 E.06571
G1 X160.001 Y125.514 E.07059
G1 X159.24 Y126.57 E.04081
G1 X157.808 Y128.282 E.06998
G1 X156.326 Y129.764 E.06571
G1 X154.599 Y131.208 E.07058
G1 X153.558 Y131.957 E.04021
G1 X151.64 Y133.136 E.07059
G1 X148.725 Y134.504 E.10096
G1 X146.442 Y135.269 E.07549
G1 X143.292 Y135.934 E.10094
G1 X140.895 Y136.156 E.07548
G1 X93.847 Y136.179 E1.47516
G1 X92.643 Y136.149 E.03776
G1 X90.556 Y135.955 E.06572
G1 X88.19 Y135.513 E.07547
G1 X85.114 Y134.561 E.10096
G1 X82.911 Y133.588 E.07551
G1 X80.135 Y131.957 E.10095
G1 X78.214 Y130.506 E.07548
G1 X75.885 Y128.282 E.10097
G1 X75.043 Y127.315 E.0402
G1 X73.78 Y125.642 E.06573
G1 X72.513 Y123.596 E.07546
G1 X71.516 Y121.577 E.0706
G1 X70.704 Y119.456 E.07121
G1 X69.9 Y116.358 E.10035
G1 X69.582 Y114.129 E.0706
G1 X69.47 Y111.88 E.0706
G1 X69.567 Y109.631 E.07058
G1 X69.9 Y107.246 E.07551
G1 X70.422 Y105.056 E.07059
G1 X71.145 Y102.924 E.07059
G1 X72.061 Y100.867 E.0706
G1 X73.692 Y98.091 E.10095
G1 X75.043 Y96.29 E.07059
G1 X76.555 Y94.621 E.07061
G1 X78.17 Y93.139 E.06873
; printing object tete.stl id:0 copy 0
G1 E-3.5 F3600
;WIPE_START
G1 F7200
G1 X80.135 Y91.648 E-1.17165
G1 X80.724 Y91.286 E-.32835
;WIPE_END
G1 X113.777 Y106.698 F9000
G1 E5 F2400
;TYPE:Support material interface
;WIDTH:0.36
G1 F1200
G1 X113.257 Y106.698 E.01371
G1 X113.257 Y106.019 E.0179
G1 X113.936 Y106.698 E.02532
G1 X114.667 Y106.698 E.01927
G1 X113.869 Y105.899 E.02977
G1 X114.6 Y105.899 E.01927
G1 X115.399 Y106.698 E.02979
G1 X116.13 Y106.698 E.01927
G1 X115.331 Y105.899 E.02979
G1 X116.063 Y105.899 E.0193
G1 X116.861 Y106.698 E.02977
G1 X117.592 Y106.698 E.01927
G1 X116.794 Y105.899 E.02977
G1 X117.525 Y105.899 E.01927
G1 X118.324 Y106.698 E.02979
G1 X119.055 Y106.698 E.01927
G1 X118.256 Y105.899 E.02979
G1 X118.988 Y105.899 E.0193
G1 X119.786 Y106.698 E.02977
G1 X120.436 Y106.698 E.01714
G1 X120.436 Y106.617 E.00214
G1 X119.719 Y105.899 E.02675
G1 X120.436 Y105.899 E.0189
G1 X120.436 Y106.458 E.01474
G1 X120.385 Y107.358 F9000
;TYPE:Support material
;WIDTH:0.42
G1 F1200
G1 X113.309 Y107.358 E.22186
G1 X113.309 Y107.066 E.00916
G1 X120.385 Y107.066 E.22186
G1 X120.385 Y107.302 E.0074
G1 X120.385 Y105.531 F9000
G1 F1200
G1 X113.309 Y105.531 E.22186
G1 X113.309 Y102.65 E.09033
G1 X120.385 Y102.65 E.22186
G1 X120.385 Y105.474 E.08854
G1 X119.779 Y105.361 F9000
G1 F1200
G1 X119.779 Y102.989 E.07437
G1 X119.361 Y102.989 E.01311
G1 X119.361 Y105.191 E.06904
G1 X118.942 Y105.191 E.01314
G1 X118.942 Y102.989 E.06904
G1 X118.523 Y102.989 E.01314
G1 X118.523 Y105.191 E.06904
G1 X118.104 Y105.191 E.01314
G1 X118.104 Y102.989 E.06904
G1 X117.685 Y102.989 E.01314
G1 X117.685 Y105.191 E.06904
G1 X117.266 Y105.191 E.01314
G1 X117.266 Y102.989 E.06904
G1 X116.847 Y102.989 E.01314
G1 X116.847 Y105.191 E.06904
G1 X116.428 Y105.191 E.01314
G1 X116.428 Y102.989 E.06904
G1 X116.009 Y102.989 E.01314
G1 X116.009 Y105.191 E.06904
G1 X115.59 Y105.191 E.01314
G1 X115.59 Y102.989 E.06904
G1 X115.171 Y102.989 E.01314
G1 X115.171 Y105.191 E.06904
G1 X114.752 Y105.191 E.01314
G1 X114.752 Y102.989 E.06904
G1 X114.333 Y102.989 E.01314
G1 X114.333 Y105.191 E.06904
G1 X113.914 Y105.191 E.01314
G1 X113.914 Y102.819 E.07437
G1 E-3.5 F3600
;WIPE_START
G1 F7200
G1 X113.914 Y105.191 E-1.1267
G1 X114.333 Y105.191 E-.19902
G1 X114.333 Y104.824 E-.17428
;WIPE_END
G1 X113.816 Y117.705 F9000
G1 E5 F2400
;TYPE:Support material interface
;WIDTH:0.36
G1 F1200
G1 X113.257 Y117.705 E.01474
G1 X113.257 Y116.988 E.0189
G1 X113.974 Y117.705 E.02673
G1 X114.706 Y117.705 E.0193
G1 X113.907 Y116.907 E.02977
G1 X114.638 Y116.907 E.01927
G1 X115.437 Y117.705 E.02977
G1 X116.168 Y117.705 E.01927
G1 X115.37 Y116.907 E.02975
G1 X116.101 Y116.907 E.01927
G1 X116.899 Y117.705 E.02975
G1 X117.631 Y117.705 E.0193
G1 X116.832 Y116.907 E.02977
G1 X117.564 Y116.907 E.0193
G1 X118.362 Y117.705 E.02975
G1 X119.093 Y117.705 E.01927
G1 X118.295 Y116.907 E.02975
G1 X119.026 Y116.907 E.01927
G1 X119.824 Y117.705 E.02975
G1 X120.436 Y117.705 E.01614
G1 X120.436 Y117.586 E.00314
G1 X119.757 Y116.907 E.02532
G1 X120.436 Y116.907 E.0179
G1 X120.436 Y117.427 E.01371
G1 X120.385 Y116.538 F9000
;TYPE:Support material
;WIDTH:0.42
G1 F1200
G1 X113.309 Y116.538 E.22186
G1 X113.309 Y116.246 E.00916
G1 X120.385 Y116.246 E.22186
G1 X120.385 Y116.481 E.00737
G1 E-3.5 F3600
;WIPE_START
G1 F7200
G1 X120.385 Y116.246 E-.11162
G1 X117.462 Y116.246 E-1.38838
;WIPE_END
G1 X120.385 Y120.955 F9000
G1 E5 F2400
G1 F1200
G1 X113.309 Y120.955 E.22186
G1 X113.309 Y118.074 E.09033
G1 X120.385 Y118.074 E.22186
G1 X120.385 Y120.898 E.08854
G1 X119.779 Y120.785 F9000
G1 F1200
G1 X119.779 Y118.413 E.07437
G1 X119.36 Y118.413 E.01314
G1 X119.36 Y120.615 E.06904
G1 X118.942 Y120.615 E.01311
G1 X118.942 Y118.413 E.06904
G1 X118.523 Y118.413 E.01314
G1 X118.523 Y120.615 E.06904
G1 X118.104 Y120.615 E.01314
G1 X118.104 Y118.413 E.06904
G1 X117.685 Y118.413 E.01314
G1 X117.685 Y120.615 E.06904
G1 X117.266 Y120.615 E.01314
G1 X117.266 Y118.413 E.06904
G1 X116.847 Y118.413 E.01314
G1 X116.847 Y120.615 E.06904
G1 X116.428 Y120.615 E.01314
G1 X116.428 Y118.413 E.06904
G1 X116.009 Y118.413 E.01314
G1 X116.009 Y120.615 E.06904
G1 X115.59 Y120.615 E.01314
G1 X115.59 Y118.413 E.06904
G1 X115.171 Y118.413 E.01314
G1 X115.171 Y120.615 E.06904
G1 X114.752 Y120.615 E.01314
G1 X114.752 Y118.413 E.06904
G1 X114.333 Y118.413 E.01314
G1 X114.333 Y120.615 E.06904
G1 X113.914 Y120.615 E.01314
G1 X113.914 Y118.243 E.07437
G1 E-3.5 F3600
;WIPE_START
G1 F7200
G1 X113.914 Y120.615 E-1.1267
G1 X114.333 Y120.615 E-.19902
G1 X114.333 Y120.248 E-.17428
;WIPE_END
G1 X111.811 Y115.519 F9000
G1 E5 F2400
;TYPE:Perimeter
;WIDTH:0.419999
G1 F1200
G1 X111.782 Y115.663 E.00461
G1 X111.782 Y131.738 E.50402
G1 X93.859 Y131.738 E.56196
G1 X92.926 Y131.717 E.02926
G1 X92.007 Y131.653 E.02888
G1 X91.092 Y131.547 E.02888
G1 X90.183 Y131.398 E.02888
G1 X89.282 Y131.208 E.02887
G1 X88.391 Y130.977 E.02886
G1 X87.511 Y130.704 E.02889
G1 X86.645 Y130.392 E.02886
G1 X85.794 Y130.039 E.02889
G1 X84.961 Y129.648 E.02885
G1 X84.146 Y129.218 E.02889
G1 X83.352 Y128.752 E.02887
G1 X82.58 Y128.249 E.02889
G1 X81.833 Y127.711 E.02886
G1 X81.111 Y127.139 E.02888
G1 X80.416 Y126.535 E.02887
G1 X79.75 Y125.899 E.02887
G1 X79.114 Y125.233 E.02887
G1 X78.51 Y124.538 E.02887
G1 X77.938 Y123.816 E.02888
G1 X77.4 Y123.069 E.02886
G1 X76.897 Y122.297 E.02889
G1 X76.43 Y121.503 E.02888
G1 X76.001 Y120.688 E.02888
G1 X75.61 Y119.855 E.02885
G1 X75.257 Y119.004 E.02889
G1 X74.945 Y118.138 E.02886
G1 X74.672 Y117.258 E.02889
G1 X74.441 Y116.366 E.02889
G1 X74.251 Y115.465 E.02887
G1 X74.102 Y114.556 E.02888
G1 X73.996 Y113.642 E.02885
G1 X73.932 Y112.723 E.02888
G1 X73.911 Y111.802 E.02888
G1 X73.932 Y110.882 E.02885
G1 X73.996 Y109.963 E.02888
G1 X74.102 Y109.048 E.02888
G1 X74.251 Y108.139 E.02888
G1 X74.441 Y107.238 E.02887
G1 X74.672 Y106.347 E.02886
G1 X74.945 Y105.467 E.02889
G1 X75.257 Y104.601 E.02886
G1 X75.61 Y103.75 E.02889
G1 X76.001 Y102.916 E.02888
G1 X76.43 Y102.102 E.02885
G1 X76.897 Y101.308 E.02888
G1 X77.4 Y100.536 E.02889
G1 X77.938 Y99.788 E.02889
G1 X78.51 Y99.066 E.02888
G1 X79.114 Y98.372 E.02885
G1 X79.75 Y97.706 E.02887
G1 X80.416 Y97.07 E.02887
G1 X81.111 Y96.465 E.02889
G1 X81.833 Y95.893 E.02888
G1 X82.58 Y95.355 E.02886
G1 X83.352 Y94.853 E.02887
G1 X84.146 Y94.386 E.02888
G1 X84.961 Y93.957 E.02888
G1 X85.794 Y93.565 E.02887
G1 X86.645 Y93.213 E.02887
G1 X87.511 Y92.9 E.02887
G1 X88.391 Y92.628 E.02888
G1 X89.282 Y92.396 E.02887
G1 X90.184 Y92.206 E.0289
G1 X91.092 Y92.058 E.02885
G1 X92.007 Y91.952 E.02888
G1 X92.926 Y91.888 E.02888
G1 X93.859 Y91.866 E.02926
G1 X111.782 Y91.866 E.56196
G1 X111.784 Y107.994 E.50568
G1 X111.878 Y108.356 E.01173
G1 X112.063 Y108.613 E.00993
G1 X112.379 Y108.819 E.01183
G1 X112.725 Y108.884 E.01104
G1 X120.968 Y108.884 E.25845
G1 X121.15 Y108.867 E.00573
G1 X121.448 Y108.753 E.01
G1 X121.688 Y108.55 E.00986
G1 X121.849 Y108.277 E.00994
G1 X121.911 Y107.942 E.01068
G1 X121.911 Y91.866 E.50405
G1 X139.834 Y91.866 E.56196
G1 X140.767 Y91.888 E.02926
G1 X141.686 Y91.952 E.02888
G1 X142.601 Y92.058 E.02888
G1 X143.51 Y92.206 E.02888
G1 X144.411 Y92.396 E.02887
G1 X145.302 Y92.628 E.02887
G1 X146.182 Y92.9 E.02888
G1 X147.048 Y93.213 E.02887
G1 X147.899 Y93.565 E.02887
G1 X148.733 Y93.957 E.02889
G1 X149.547 Y94.386 E.02885
G1 X150.341 Y94.853 E.02888
G1 X151.113 Y95.355 E.02887
G1 X151.86 Y95.893 E.02886
G1 X152.582 Y96.465 E.02888
G1 X153.277 Y97.07 E.02889
G1 X153.943 Y97.706 E.02887
G1 X154.579 Y98.372 E.02887
G1 X155.184 Y99.066 E.02887
G1 X155.756 Y99.788 E.02888
G1 X156.293 Y100.536 E.02887
G1 X156.796 Y101.308 E.02889
G1 X157.263 Y102.102 E.02888
G1 X157.692 Y102.916 E.02885
G1 X158.084 Y103.75 E.02889
G1 X158.436 Y104.601 E.02887
G1 X158.749 Y105.467 E.02887
G1 X159.021 Y106.347 E.02888
G1 X159.253 Y107.238 E.02887
G1 X159.443 Y108.139 E.02887
G1 X159.591 Y109.048 E.02888
G1 X159.697 Y109.963 E.02888
G1 X159.74 Y110.583 E.01949
G1 X159.779 Y111.944 E.04269
G1 X159.761 Y112.723 E.02443
G1 X159.697 Y113.642 E.02888
G1 X159.591 Y114.557 E.02888
G1 X159.443 Y115.465 E.02885
G1 X159.253 Y116.366 E.02887
G1 X159.021 Y117.258 E.0289
G1 X158.749 Y118.138 E.02888
G1 X158.436 Y119.004 E.02887
G1 X158.084 Y119.855 E.02887
G1 X157.692 Y120.688 E.02887
G1 X157.263 Y121.503 E.02888
G1 X156.796 Y122.297 E.02888
G1 X156.293 Y123.069 E.02889
G1 X155.756 Y123.816 E.02885
G1 X155.184 Y124.538 E.02888
G1 X154.579 Y125.233 E.02889
G1 X153.943 Y125.899 E.02887
G1 X153.277 Y126.535 E.02887
G1 X152.582 Y127.139 E.02887
G1 X151.861 Y127.711 E.02886
G1 X151.113 Y128.249 E.02889
G1 X150.341 Y128.752 E.02889
G1 X149.547 Y129.218 E.02887
G1 X148.733 Y129.648 E.02886
G1 X147.899 Y130.039 E.02888
G1 X147.048 Y130.392 E.02889
G1 X146.182 Y130.704 E.02886
G1 X145.302 Y130.977 E.02889
G1 X144.411 Y131.208 E.02886
G1 X143.51 Y131.398 E.02887
G1 X142.601 Y131.547 E.02888
G1 X141.686 Y131.653 E.02888
G1 X140.767 Y131.717 E.02888
G1 X139.834 Y131.738 E.02926
G1 X121.911 Y131.738 E.56196
G1 X121.908 Y115.588 E.50637
G1 X121.827 Y115.275 E.01014
G1 X121.63 Y114.991 E.01084
G1 X121.314 Y114.786 E.01181
G1 X120.968 Y114.72 E.01104
G1 X112.725 Y114.72 E.25845
G1 X112.379 Y114.786 E.01104
G1 X112.063 Y114.991 E.01181
G1 X111.852 Y115.307 E.01191
G1 X111.822 Y115.46 E.00489
G1 X112.182 Y115.578 F9000
G1 F1200
G1 X112.16 Y115.663 E.00275
G1 X112.16 Y132.115 E.51584
G1 X93.855 Y132.115 E.57394
G1 X92.909 Y132.093 E.02967
G1 X91.972 Y132.028 E.02945
G1 X91.04 Y131.92 E.02942
G1 X90.114 Y131.769 E.02942
G1 X89.196 Y131.575 E.02942
G1 X88.288 Y131.34 E.02941
G1 X87.391 Y131.062 E.02944
G1 X86.509 Y130.743 E.02941
G1 X85.642 Y130.384 E.02942
G1 X84.792 Y129.985 E.02944
G1 X83.962 Y129.548 E.02941
G1 X83.153 Y129.072 E.02943
G1 X82.367 Y128.56 E.02941
G1 X81.605 Y128.012 E.02943
G1 X80.87 Y127.43 E.0294
G1 X80.162 Y126.814 E.02942
G1 X79.483 Y126.166 E.02943
G1 X78.835 Y125.487 E.02943
G1 X78.219 Y124.779 E.02942
G1 X77.637 Y124.043 E.02942
G1 X77.089 Y123.282 E.0294
G1 X76.576 Y122.496 E.02943
G1 X76.101 Y121.687 E.02941
G1 X75.663 Y120.856 E.02945
G1 X75.265 Y120.007 E.0294
G1 X74.906 Y119.14 E.02942
G1 X74.587 Y118.257 E.02944
G1 X74.309 Y117.361 E.02941
G1 X74.073 Y116.453 E.02942
G1 X73.88 Y115.535 E.02941
G1 X73.729 Y114.609 E.02942
G1 X73.621 Y113.676 E.02945
G1 X73.556 Y112.74 E.02942
G1 X73.534 Y111.802 E.02942
G1 X73.556 Y110.864 E.02942
G1 X73.621 Y109.928 E.02942
G1 X73.729 Y108.996 E.02942
G1 X73.88 Y108.07 E.02942
G1 X74.073 Y107.152 E.02941
G1 X74.309 Y106.243 E.02945
G1 X74.587 Y105.347 E.02941
G1 X74.906 Y104.464 E.02944
G1 X75.265 Y103.598 E.02939
G1 X75.663 Y102.748 E.02943
G1 X76.101 Y101.918 E.02943
G1 X76.576 Y101.109 E.02941
G1 X77.089 Y100.323 E.02943
G1 X77.637 Y99.561 E.02943
G1 X78.219 Y98.826 E.0294
G1 X78.835 Y98.118 E.02942
G1 X79.483 Y97.439 E.02943
G1 X80.162 Y96.791 E.02943
G1 X80.87 Y96.175 E.02942
G1 X81.605 Y95.592 E.02941
G1 X82.367 Y95.044 E.02943
G1 X83.153 Y94.532 E.02941
G1 X83.962 Y94.057 E.02941
G1 X84.792 Y93.619 E.02943
G1 X85.642 Y93.22 E.02944
G1 X86.509 Y92.861 E.02942
G1 X87.391 Y92.543 E.0294
G1 X88.288 Y92.265 E.02944
G1 X89.196 Y92.029 E.02942
G1 X90.114 Y91.835 E.02942
G1 X91.04 Y91.684 E.02942
G1 X91.972 Y91.576 E.02942
G1 X92.909 Y91.511 E.02945
G1 X93.855 Y91.489 E.02967
G1 X112.16 Y91.489 E.57394
G1 X112.16 Y107.942 E.51587
G1 X112.232 Y108.219 E.00897
G1 X112.437 Y108.429 E.0092
G1 X112.725 Y108.507 E.00936
G1 X120.968 Y108.507 E.25845
G1 X121.256 Y108.429 E.00936
G1 X121.461 Y108.219 E.0092
G1 X121.534 Y107.942 E.00898
G1 X121.534 Y91.489 E.51587
G1 X139.839 Y91.489 E.57394
G1 X140.785 Y91.511 E.02967
G1 X141.721 Y91.576 E.02942
G1 X142.653 Y91.684 E.02942
G1 X143.579 Y91.835 E.02942
G1 X144.497 Y92.029 E.02942
G1 X145.405 Y92.265 E.02942
G1 X146.302 Y92.543 E.02944
G1 X147.184 Y92.861 E.0294
G1 X148.051 Y93.22 E.02942
G1 X148.901 Y93.619 E.02944
G1 X149.731 Y94.057 E.02943
G1 X150.54 Y94.532 E.02941
G1 X151.326 Y95.044 E.02941
G1 X152.088 Y95.592 E.02943
G1 X152.823 Y96.175 E.02941
G1 X153.531 Y96.791 E.02942
G1 X154.21 Y97.439 E.02943
G1 X154.858 Y98.118 E.02943
G1 X155.474 Y98.825 E.0294
G1 X156.057 Y99.561 E.02944
G1 X156.605 Y100.323 E.02943
G1 X157.117 Y101.109 E.02941
G1 X157.592 Y101.918 E.02941
G1 X158.03 Y102.748 E.02943
G1 X158.429 Y103.597 E.02941
G1 X158.788 Y104.464 E.02942
G1 X159.106 Y105.347 E.02943
G1 X159.384 Y106.243 E.02941
G1 X159.62 Y107.152 E.02945
G1 X159.814 Y108.07 E.02942
G1 X159.965 Y108.996 E.02942
G1 X160.073 Y109.928 E.02942
G1 X160.116 Y110.557 E.01977
G1 X160.156 Y111.953 E.04379
G1 X160.138 Y112.74 E.02468
G1 X160.073 Y113.676 E.02942
G1 X159.965 Y114.609 E.02945
